!!!!SEGMENT: pl-wtm--r-1649_stefani-jozef--opatrznosci-dzieki-chwala.krn
!!!cenid: 18xx:2895
!!!COM: Stefani, Józef
!!!COM-rismID: pe30024097
!!!CDT: 1800/04/16-1876/03/19
!!!CNT: Polish
!!!OTL: Opatrzności dzięki, chwała
!!!PDT: 1842
!!!AGN:
!!!SMS-siglum: PL-Wtm
!!!SMS-shelfmark: R 1649
!!!SMS-shelfwork: W
!!!SMS-variant:
!!!SMS-altvar:
!!!NIFC-rismSourceID: 1001114496
!!!NIFC-islandoraID: pl-wtm:27486
!!!URL-pdf-islandora: https://repozytorium.nifc.pl/islandora/object/pl-wtm%3A27486/datastream/PDF/view
!!!URL-scan: https://polish.musicsources.pl/pl/lokalizacje/galeria/rekopisy/6402 @EN{Scan on Polish Music Sources Website} @PL{Skany w portalu Dziedzictwo Muzyki Polskiej w otwartym dostępie}
!!!ONB-nifc:
!!!AIN: 1 alto 2 empty 1 soprn 1 tenor
!!!key:
**kern	**dynam	**kern	**dynam	**kern	**text	**dynam	**kern	**text	**text	**dynam	**kern	**text	**dynam
*part5	*part5	*part4	*part4	*part3	*part3	*part3	*part2	*part2	*part2	*part2	*part1	*part1	*part1
*staff5	*	*staff4	*	*staff3	*staff3	*	*staff2	*staff2	*staff2	*	*staff1	*staff1	*
*>[A,B,C,C1,C,C2,D,E,B,C,C1,C,C2,D]	*>[A,B,C,C1,C,C2,D,E,B,C,C1,C,C2,D]	*>[A,B,C,C1,C,C2,D,E,B,C,C1,C,C2,D]	*>[A,B,C,C1,C,C2,D,E,B,C,C1,C,C2,D]	*>[A,B,C,C1,C,C2,D,E,B,C,C1,C,C2,D]	*>[A,B,C,C1,C,C2,D,E,B,C,C1,C,C2,D]	*>[A,B,C,C1,C,C2,D,E,B,C,C1,C,C2,D]	*>[A,B,C,C1,C,C2,D,E,B,C,C1,C,C2,D]	*>[A,B,C,C1,C,C2,D,E,B,C,C1,C,C2,D]	*>[A,B,C,C1,C,C2,D,E,B,C,C1,C,C2,D]	*>[A,B,C,C1,C,C2,D,E,B,C,C1,C,C2,D]	*>[A,B,C,C1,C,C2,D,E,B,C,C1,C,C2,D]	*>[A,B,C,C1,C,C2,D,E,B,C,C1,C,C2,D]	*>[A,B,C,C1,C,C2,D,E,B,C,C1,C,C2,D]
*>A	*>A	*>A	*>A	*>A	*>A	*>A	*>A	*>A	*>A	*>A	*>A	*>A	*>A
*Iempty	*	*Itenor	*	*Ialto	*	*	*Isoprn	*	*	*	*Iempty	*	*
*I"[Basso]	*	*I"[Tenore]	*	*I"[Alto]	*	*	*I"[Soprano]	*	*	*	*	*	*
*clefF4	*	*clefC4	*	*clefC3	*	*	*clefG2	*	*	*	*clefG2	*	*
*k[]	*	*k[]	*	*k[]	*	*	*k[]	*	*	*	*k[]	*	*
*F:	*	*F:	*	*F:	*	*	*F:	*	*	*	*F:	*	*
*M4/4	*	*M4/4	*	*M4/4	*	*	*M4/4	*	*	*	*M4/4	*	*
*met(c)	*	*met(c)	*	*met(c)	*	*	*met(c)	*	*	*	*met(c)	*	*
*all\right	*	*all\right	*	*all\right	*	*	*all\right	*	*	*	*all\right	*	*
=1	=1	=1	=1	=1	=1	=1	=1	=1	=1	=1	=1	=1	=1
!!!OMD: Moderato
1ryy	.	1ryy	.	1ryy	.	.	1ryy	.	.	.	4.c/	.	.
.	.	.	.	.	.	.	.	.	.	.	16e/LL	.	.
.	.	.	.	.	.	.	.	.	.	.	(16g/JJ	.	.
.	.	.	.	.	.	.	.	.	.	.	4.cc\)	.	.
.	.	.	.	.	.	.	.	.	.	.	16ee\LL	.	.
.	.	.	.	.	.	.	.	.	.	.	16gg\JJ	.	.
=2	=2	=2	=2	=2	=2	=2	=2	=2	=2	=2	=2	=2	=2
1ryy	.	1ryy	.	1ryy	.	.	1ryy	.	.	.	4.ccc\	.	.
!	!	!	!	!	!	!	!	!	!	!	!LO:TX:a:t=ect.	!	!
.	.	.	.	.	.	.	.	.	.	.	16eee\LLyy	.	.
.	.	.	.	.	.	.	.	.	.	.	16ggg\JJyy	.	.
.	.	.	.	.	.	.	.	.	.	.	4.cccc\yy	.	.
.	.	.	.	.	.	.	.	.	.	.	16eeee\LLyy	.	.
!	!	!	!	!	!	!	!	!	!	!	!LO:TX:t=[segno]:problem=znak segno na kresce taktowej	!	!
.	.	.	.	.	.	.	.	.	.	.	16gggg\JJyy	.	.
=3||	=3||	=3||	=3||	=3||	=3||	=3||	=3||	=3||	=3||	=3||	=3||	=3||	=3||
*>B	*>B	*>B	*>B	*>B	*>B	*>B	*>B	*>B	*>B	*>B	*>B	*>B	*>B
!!!OMD: All.°.
*k[b-]	*	*k[b-]	*	*k[b-]	*	*	*k[b-]	*	*	*	*k[b-]	*	*
!	!	!	!	!	!	!	!	!	!	!	!	!	!LO:DY:a:rj
1ryy	.	1ryy	.	1ryy	.	.	1ryy	.	.	.	8c/L	.	f
.	.	.	.	.	.	.	.	.	.	.	16c/L	.	.
.	.	.	.	.	.	.	.	.	.	.	16c/JJ	.	.
.	.	.	.	.	.	.	.	.	.	.	8c/L	.	.
.	.	.	.	.	.	.	.	.	.	.	8c/J	.	.
*	*	*	*	*	*	*	*	*	*	*	*tremolo	*	*
.	.	.	.	.	.	.	.	.	.	.	8c/L	.	.
.	.	.	.	.	.	.	.	.	.	.	8c/	.	.
.	.	.	.	.	.	.	.	.	.	.	8c/	.	.
.	.	.	.	.	.	.	.	.	.	.	8c/J	.	.
=4	=4	=4	=4	=4	=4	=4	=4	=4	=4	=4	=4	=4	=4
!	!	!	!	!	!	!	!	!	!	!	!	!	!LO:DY:a:rj
1ryy	.	1ryy	.	1ryy	.	.	1ryy	.	.	.	16b-X/LL	.	p
.	.	.	.	.	.	.	.	.	.	.	16b-/	.	.
.	.	.	.	.	.	.	.	.	.	.	16b-/	.	.
.	.	.	.	.	.	.	.	.	.	.	16b-/JJ	.	.
.	.	.	.	.	.	.	.	.	.	.	16a/LL	.	.
.	.	.	.	.	.	.	.	.	.	.	16a/	.	.
.	.	.	.	.	.	.	.	.	.	.	16a/	.	.
.	.	.	.	.	.	.	.	.	.	.	16a/JJ	.	.
.	.	.	.	.	.	.	.	.	.	.	16b-/LL	.	.
.	.	.	.	.	.	.	.	.	.	.	16b-/	.	.
.	.	.	.	.	.	.	.	.	.	.	16b-/	.	.
.	.	.	.	.	.	.	.	.	.	.	16b-/JJ	.	.
.	.	.	.	.	.	.	.	.	.	.	16g/LL	.	.
.	.	.	.	.	.	.	.	.	.	.	16g/	.	.
.	.	.	.	.	.	.	.	.	.	.	16g/	.	.
.	.	.	.	.	.	.	.	.	.	.	16g/JJ	.	.
*	*	*	*	*	*	*	*	*	*	*	*Xtremolo	*	*
!!LO:LB:g=original
=5	=5	=5	=5	=5	=5	=5	=5	=5	=5	=5	=5	=5	=5
1ryy	.	1ryy	.	1ryy	.	.	1ryy	.	.	.	8g/L	.	.
.	.	.	.	.	.	.	.	.	.	.	16c/L	.	.
.	.	.	.	.	.	.	.	.	.	.	16c/JJ	.	.
.	.	.	.	.	.	.	.	.	.	.	8c/L	.	.
.	.	.	.	.	.	.	.	.	.	.	8c/J	.	.
*	*	*	*	*	*	*	*	*	*	*	*tremolo	*	*
.	.	.	.	.	.	.	.	.	.	.	8c/L	.	.
.	.	.	.	.	.	.	.	.	.	.	8c/	.	.
.	.	.	.	.	.	.	.	.	.	.	8c/	.	.
.	.	.	.	.	.	.	.	.	.	.	8c/J	.	.
=6	=6	=6	=6	=6	=6	=6	=6	=6	=6	=6	=6	=6	=6
1ryy	.	1ryy	.	1ryy	.	.	1ryy	.	.	.	16cc/LL	.	.
.	.	.	.	.	.	.	.	.	.	.	16cc/	.	.
.	.	.	.	.	.	.	.	.	.	.	16cc/	.	.
.	.	.	.	.	.	.	.	.	.	.	16cc/JJ	.	.
.	.	.	.	.	.	.	.	.	.	.	16bn/LL	.	.
.	.	.	.	.	.	.	.	.	.	.	16b/	.	.
.	.	.	.	.	.	.	.	.	.	.	16b/	.	.
.	.	.	.	.	.	.	.	.	.	.	16b/JJ	.	.
.	.	.	.	.	.	.	.	.	.	.	16cc/LL	.	.
.	.	.	.	.	.	.	.	.	.	.	16cc/	.	.
.	.	.	.	.	.	.	.	.	.	.	16cc/	.	.
.	.	.	.	.	.	.	.	.	.	.	16cc/JJ	.	.
.	.	.	.	.	.	.	.	.	.	.	16a/LL	.	.
.	.	.	.	.	.	.	.	.	.	.	16a/	.	.
.	.	.	.	.	.	.	.	.	.	.	16a/	.	.
.	.	.	.	.	.	.	.	.	.	.	16a/JJ	.	.
*	*	*	*	*	*	*	*	*	*	*	*Xtremolo	*	*
=7	=7	=7	=7	=7	=7	=7	=7	=7	=7	=7	=7	=7	=7
1ryy	.	1ryy	.	1ryy	.	.	1ryy	.	.	.	8g/L	.	.
.	.	.	.	.	.	.	.	.	.	.	16c/L	.	.
.	.	.	.	.	.	.	.	.	.	.	16c/JJ	.	.
.	.	.	.	.	.	.	.	.	.	.	8c/L	.	.
.	.	.	.	.	.	.	.	.	.	.	8c/J	.	.
*	*	*	*	*	*	*	*	*	*	*	*tremolo	*	*
.	.	.	.	.	.	.	.	.	.	.	8c/L	.	.
.	.	.	.	.	.	.	.	.	.	.	8c/	.	.
.	.	.	.	.	.	.	.	.	.	.	8c/	.	.
.	.	.	.	.	.	.	.	.	.	.	8c/J	.	.
=8	=8	=8	=8	=8	=8	=8	=8	=8	=8	=8	=8	=8	=8
1ryy	.	1ryy	.	1ryy	.	.	1ryy	.	.	.	16dd\LL	.	.
.	.	.	.	.	.	.	.	.	.	.	16dd\	.	.
.	.	.	.	.	.	.	.	.	.	.	16dd\	.	.
.	.	.	.	.	.	.	.	.	.	.	16dd\JJ	.	.
.	.	.	.	.	.	.	.	.	.	.	16cc#X\LL	.	.
.	.	.	.	.	.	.	.	.	.	.	16cc#\	.	.
.	.	.	.	.	.	.	.	.	.	.	16cc#\	.	.
.	.	.	.	.	.	.	.	.	.	.	16cc#\JJ	.	.
.	.	.	.	.	.	.	.	.	.	.	16dd\LL	.	.
.	.	.	.	.	.	.	.	.	.	.	16dd\	.	.
.	.	.	.	.	.	.	.	.	.	.	16dd\	.	.
.	.	.	.	.	.	.	.	.	.	.	16dd\JJ	.	.
.	.	.	.	.	.	.	.	.	.	.	16ccn\LL	.	.
.	.	.	.	.	.	.	.	.	.	.	16cc\	.	.
.	.	.	.	.	.	.	.	.	.	.	16cc\	.	.
.	.	.	.	.	.	.	.	.	.	.	16cc\JJ	.	.
=9	=9	=9	=9	=9	=9	=9	=9	=9	=9	=9	=9	=9	=9
1ryy	.	1ryy	.	1ryy	.	.	1ryy	.	.	.	16b-/LL	.	.
.	.	.	.	.	.	.	.	.	.	.	16b-/	.	.
.	.	.	.	.	.	.	.	.	.	.	16b-/	.	.
.	.	.	.	.	.	.	.	.	.	.	16b-/JJ	.	.
.	.	.	.	.	.	.	.	.	.	.	16a/LL	.	.
.	.	.	.	.	.	.	.	.	.	.	16a/	.	.
.	.	.	.	.	.	.	.	.	.	.	16a/	.	.
.	.	.	.	.	.	.	.	.	.	.	16a/JJ	.	.
.	.	.	.	.	.	.	.	.	.	.	16b-/LL	.	.
.	.	.	.	.	.	.	.	.	.	.	16b-/	.	.
.	.	.	.	.	.	.	.	.	.	.	16b-/	.	.
.	.	.	.	.	.	.	.	.	.	.	16b-/JJ	.	.
.	.	.	.	.	.	.	.	.	.	.	16a/LL	.	.
.	.	.	.	.	.	.	.	.	.	.	16a/	.	.
.	.	.	.	.	.	.	.	.	.	.	16a/	.	.
.	.	.	.	.	.	.	.	.	.	.	16a/JJ	.	.
!!LO:LB:g=original
=10	=10	=10	=10	=10	=10	=10	=10	=10	=10	=10	=10	=10	=10
1ryy	.	1ryy	.	1ryy	.	.	1ryy	.	.	.	16g/LL	.	.
.	.	.	.	.	.	.	.	.	.	.	16g/	.	.
.	.	.	.	.	.	.	.	.	.	.	16g/	.	.
.	.	.	.	.	.	.	.	.	.	.	16g/JJ	.	.
.	.	.	.	.	.	.	.	.	.	.	16f#X/LL	.	.
.	.	.	.	.	.	.	.	.	.	.	16f#/	.	.
.	.	.	.	.	.	.	.	.	.	.	16f#/	.	.
.	.	.	.	.	.	.	.	.	.	.	16f#/JJ	.	.
.	.	.	.	.	.	.	.	.	.	.	16g/LL	.	.
.	.	.	.	.	.	.	.	.	.	.	16g/	.	.
.	.	.	.	.	.	.	.	.	.	.	16g/	.	.
.	.	.	.	.	.	.	.	.	.	.	16g/JJ	.	.
.	.	.	.	.	.	.	.	.	.	.	16fn/LL	.	.
.	.	.	.	.	.	.	.	.	.	.	16f/	.	.
.	.	.	.	.	.	.	.	.	.	.	16f/	.	.
.	.	.	.	.	.	.	.	.	.	.	16f/JJ	.	.
=11	=11	=11	=11	=11	=11	=11	=11	=11	=11	=11	=11	=11	=11
1ryy	.	1ryy	.	1ryy	.	.	1ryy	.	.	.	16e/LL	.	.
.	.	.	.	.	.	.	.	.	.	.	16e/	.	.
.	.	.	.	.	.	.	.	.	.	.	16e/	.	.
.	.	.	.	.	.	.	.	.	.	.	16e/	.	.
.	.	.	.	.	.	.	.	.	.	.	16f/	.	.
.	.	.	.	.	.	.	.	.	.	.	16f/	.	.
.	.	.	.	.	.	.	.	.	.	.	16f#X/	.	.
.	.	.	.	.	.	.	.	.	.	.	16f#/JJ	.	.
.	.	.	.	.	.	.	.	.	.	.	16g/LL	.	.
.	.	.	.	.	.	.	.	.	.	.	16g/	.	.
!	!	!	!	!	!	!	!	!	!	!	!	!	!LO:HP:b:t=cresc
.	.	.	.	.	.	.	.	.	.	.	16f#/	.	<
.	.	.	.	.	.	.	.	.	.	.	16f#/	.	.
.	.	.	.	.	.	.	.	.	.	.	16g/	.	.
.	.	.	.	.	.	.	.	.	.	.	16g/	.	.
.	.	.	.	.	.	.	.	.	.	.	16a/	.	.
.	.	.	.	.	.	.	.	.	.	.	16a/JJ	.	.
=12	=12	=12	=12	=12	=12	=12	=12	=12	=12	=12	=12	=12	=12
1ryy	.	1ryy	.	1ryy	.	.	1ryy	.	.	.	16b-/LL	.	.
.	.	.	.	.	.	.	.	.	.	.	16b-/	.	.
.	.	.	.	.	.	.	.	.	.	.	16f#X/	.	.
.	.	.	.	.	.	.	.	.	.	.	16f#/	.	.
.	.	.	.	.	.	.	.	.	.	.	16g/	.	.
.	.	.	.	.	.	.	.	.	.	.	16g/	.	.
.	.	.	.	.	.	.	.	.	.	.	16a/	.	.
.	.	.	.	.	.	.	.	.	.	.	16a/JJ	.	.
.	.	.	.	.	.	.	.	.	.	.	16b-/LL	.	.
.	.	.	.	.	.	.	.	.	.	.	16b-/	.	.
.	.	.	.	.	.	.	.	.	.	.	16a/	.	.
.	.	.	.	.	.	.	.	.	.	.	16a/	.	.
.	.	.	.	.	.	.	.	.	.	.	16b-/	.	.
.	.	.	.	.	.	.	.	.	.	.	16b-/	.	.
.	.	.	.	.	.	.	.	.	.	.	16cc/	.	.
.	.	.	.	.	.	.	.	.	.	.	16cc/JJ	.	.
=13	=13	=13	=13	=13	=13	=13	=13	=13	=13	=13	=13	=13	=13
1ryy	.	1ryy	.	1ryy	.	.	1ryy	.	.	.	16dd/LL	.	.
.	.	.	.	.	.	.	.	.	.	.	16dd/	.	.
.	.	.	.	.	.	.	.	.	.	.	16a/	.	.
.	.	.	.	.	.	.	.	.	.	.	16a/	.	.
.	.	.	.	.	.	.	.	.	.	.	16b-/	.	.
.	.	.	.	.	.	.	.	.	.	.	16b-/	.	.
.	.	.	.	.	.	.	.	.	.	.	16cc/	.	.
.	.	.	.	.	.	.	.	.	.	.	16cc/JJ	.	.
*	*	*	*	*	*	*	*	*	*	*	*rep	*	*
.	.	.	.	.	.	.	.	.	.	.	16dd/LL	.	.
.	.	.	.	.	.	.	.	.	.	.	16dd/	.	.
.	.	.	.	.	.	.	.	.	.	.	16a/	.	.
.	.	.	.	.	.	.	.	.	.	.	16a/	.	.
.	.	.	.	.	.	.	.	.	.	.	16b-/	.	.
.	.	.	.	.	.	.	.	.	.	.	16b-/	.	.
.	.	.	.	.	.	.	.	.	.	.	16cc/	.	.
.	.	.	.	.	.	.	.	.	.	.	16cc/JJ	.	.
*	*	*	*	*	*	*	*	*	*	*	*Xrep	*	*
!!LO:LB:g=original
=14	=14	=14	=14	=14	=14	=14	=14	=14	=14	=14	=14	=14	=14
!	!	!	!	!	!	!	!LO:TX:a:i:t=ritardando.	!	!	!	!	!	!
2r	.	2r	.	2r	.	.	2r	.	.	.	16dd\LL	.	.
.	.	.	.	.	.	.	.	.	.	.	16dd\	.	.
.	.	.	.	.	.	.	.	.	.	.	16dd\	.	.
.	.	.	.	.	.	.	.	.	.	.	16dd\JJ	.	.
!	!	!	!	!	!	!	!	!	!	!	!	!	!LO:HP:b
.	.	.	.	.	.	.	.	.	.	.	16cc\LL	.	<
.	.	.	.	.	.	.	.	.	.	.	16cc\	.	.
.	.	.	.	.	.	.	.	.	.	.	16cc\	.	.
.	.	.	.	.	.	.	.	.	.	.	16cc\JJ	.	.
4r	.	4r	.	4r	.	.	4r	.	.	.	16dd\LL	.	.
.	.	.	.	.	.	.	.	.	.	.	16dd\	.	.
.	.	.	.	.	.	.	.	.	.	.	16dd\	.	.
.	.	.	.	.	.	.	.	.	.	.	16dd\JJ	.	.
!	!	!	!	!	!	!	!	!	!	!LO:DY:a:rj	!	!	!
8.C/	.	8.c\	.	8.c\	.	.	8.cc\	O-	.	f	16ee\LL	.	.
.	.	.	.	.	.	.	.	.	.	.	16ee\	.	.
.	.	.	.	.	.	.	.	.	.	.	16ee\	.	.
16C/	.	16c\	.	16c\	.	.	16cc\	-pa-	.	.	16ee\JJ	.	[
*	*	*	*	*	*	*	*	*	*	*	*Xtremolo	*	*
=15||	=15||	=15||	=15||	=15||	=15||	=15||	=15||	=15||	=15||	=15||	=15||	=15||	=15||
!!!OMD: Maestoso.
*	*	*^	*	*	*	*	*	*	*	*	*	*	*
!	!	!	!	!	!	!	!	!	!	!	!	!	!	!LO:DY:a:rj
4.F\	.	4.f 4.A\	2ryy	.	4.f\	.	.	4.ff 4.a\	-trzno-	.	.	4.ff\	.	f
8F\	.	8c 8A\	.	.	8f\	.	.	8cc 8a\	-ści	.	.	8cc 8f\	.	.
4F\	.	4d 4B-\	4ryy	.	4f\	.	.	4dd 4b-\	dzię-	.	.	4dd 4f\	.	.
4F\	.	4c/	4A\	.	4f\	.	.	4cc 4a\	-ki	.	.	4cc 4f\	.	.
=16	=16	=16	=16	=16	=16	=16	=16	=16	=16	=16	=16	=16	=16	=16
*	*	*	*	*	*	*	*	*^	*	*	*	*	*	*
*2\right	*	*2\right	*	*	*2\right	*	*	*2\right	*	*	*	*	*	*	*
2F\	.	4.Bn/	2G#X\	.	2f\	.	.	4.bn^/	2g#X\	chwa-	.	.	(4.bn\	.	.
.	.	16c/LL	.	.	.	.	.	16cc/LL	.	.	.	.	16cc\LL	.	.
.	.	16d/JJ	.	.	.	.	.	16dd/JJ	.	.	.	.	16dd\JJ)	.	.
4F\	.	4c/	4A\	.	4f\	.	.	4cc/	4a\	-ła	.	.	4cc\	.	.
8.F\	.	8.c\	4ryy	.	8.f\	.	.	8.cc/	8.a\	No-	.	.	8.cc/L	.	.
16A\	.	16c\	.	.	16f\	.	.	16a/	16a\	-wą	.	.	16a/Jk	.	.
*	*	*v	*v	*	*	*	*	*	*	*	*	*	*	*	*
=17	=17	=17	=17	=17	=17	=17	=17	=17	=17	=17	=17	=17	=17	=17
4.c\	.	4.c\	.	4f\	.	.	4.g/	4.g\	ra-	.	.	2.g/	.	.
.	.	.	.	8e\L	.	.	.	.	.	.	.	.	.	.
8c\	.	8c\	.	8d\J	.	.	8g/	8g\	-dość	.	.	.	.	.
!	!	!	!	!	!	!	!	!LO:N:vis=8	!	!	!	!	!	!
4C/	.	4c\	.	4e\	.	.	4g/	4g\	nam	.	.	.	.	.
4C/	.	4c\	.	4e\	.	.	4cc/	4g\	ze-	.	.	4cc/	.	.
!!LO:PB:g=original
=18	=18	=18	=18	=18	=18	=18	=18	=18	=18	=18	=18	=18	=18	=18
*	*	*^	*	*	*	*	*	*	*	*	*	*	*	*
(4D\	.	4d/	2B-\	.	(4f\	.	.	2b-/	(>4f\	-sła-	.	.	(2b-/	.	.
4E\)	.	4c/	.	.	4g\)	.	.	.	4g\)	.	.	.	.	.	.
4F\	.	4c/	4A\	.	4f\	.	.	4a/	4a\	-ła,	.	.	4a/)	.	.
!	!	!	!	!	!LO:TX:t=P:problem=wykreślony tekst "Głosim"	!	!	!	!	!	!	!LO:DY:a:rj	!	!	!LO:HP:a
4E\	.	4c/	4G\	.	(4g\	W Świę-	.	4cc/	4g\	Nie-	.	<	8.cc\L	.	<
.	.	.	.	.	.	.	.	.	.	.	.	.	32dd\LL	.	.
.	.	.	.	.	.	.	.	.	.	.	.	.	32ee\JJJ	.	[[
*	*	*	*	*	*	*	*	*v	*v	*	*	*	*	*	*
=19	=19	=19	=19	=19	=19	=19	=19	=19	=19	=19	=19	=19	=19	=19
4.D\	.	4.d 4.A\	2ryy	.	4.f\)	-to	.	4.ff 4.a\	-biań-	.	[	4.ff\	.	.
8D\	.	8d 8A\	.	.	8f\	dro-	.	8ff 8a\	-skie	.	.	8ff\	.	.
4E\	.	4c#X/	4A\	.	4g\	-gie-	.	4ee 4a\	no-	.	.	4ee\	.	.
8.F\	.	8.d 8.A\	4ryy	.	8.f\	-go	.	8.dd 8.a\	-we	.	.	8.dd\L	.	.
16F\	.	16d 16A\	.	.	16f\	I-	.	16dd 16a\	nad	.	.	16dd\Jk	.	.
=20	=20	=20	=20	=20	=20	=20	=20	=20	=20	=20	=20	=20	=20	=20
*	*	*	*	*	*	*	*	*^	*	*	*	*	*	*
*	*	*	*	*	*	*	*	*	*	*	*	*	*2\right	*	*
2E\	.	2d/	2Bn\	.	2e\	-mie-	.	2bn^/	2g#X\	gro-	.	.	2bn^<t\	.	.
4A\	.	4c/	4A\	.	4e\	-nia	.	4cc/	4a\	-dy,	.	.	4cc\	.	.
4F\	.	4d/	4A\	.	(4d\	Gło-	.	4dd/	4a\	Wzno-	.	.	4dd\	.	.
*	*	*v	*v	*	*	*	*	*	*	*	*	*	*	*	*
=21	=21	=21	=21	=21	=21	=21	=21	=21	=21	=21	=21	=21	=21	=21
4G\	.	4c 4G\	.	4e\)	-śim	.	4ee 4g/	4ryy	-wio-	.	.	(4ee\	.	.
8.G\	.	8.c 8.G\	.	8.e\	ser-	.	8.dd 8.g/	8ryy	-ne	.	.	8.dd\L)	.	.
.	.	.	.	.	.	.	.	16ryy	.	.	.	.	.	.
16G\	.	16c\	.	16e\	-decz-	.	16cc/	16cc\	Mo-	.	.	16cc\Jk|	.	.
4G\	.	4d\	.	4f\	-ne	.	(4bn/	4bn\	-nar-	.	.	(4bn\	.	.
4G 4GG/	.	4d\	.	4f\	ży-	.	8.a/)	8.a\L	.	.	.	8.a\L)	.	.
.	.	.	.	.	.	.	16b/	16b\Jk	-sze	.	.	16bn\Jk|	.	.
=22	=22	=22	=22	=22	=22	=22	=22	=22	=22	=22	=22	=22	=22	=22
*^	*	*	*	*	*	*	*	*	*	*	*	*	*	*
!	!	!	!	!	!	!	!	!	!	!	!	!	!	!	!LO:HP:b
2A/	4AA\	.	2c\	.	2e\	-cze-	.	2cc/	2cc\	go-	.	.	(2cc\	.	<
.	4A\	.	.	.	.	.	.	.	.	.	.	.	.	.	.
4F#X\	2ryy	.	4d 4A\	.	4a\	-nia	.	4dd/	4cc\	-dy	.	.	4dd\	.	.
!	!	!	!	!	!LO:TX:t=P:problem=brak początku łuku	!	!	!	!	!	!	!	!	!	!
4F#\	.	.	4e-X 4A\	.	(4a\	Gło-	.	4ee-X/	4cc\	wzno-	.	.	4ee-X\)	.	[[
*v	*v	*	*	*	*	*	*	*	*	*	*	*	*	*	*
!!LO:LB:g=original
=23	=23	=23	=23	=23	=23	=23	=23	=23	=23	=23	=23	=23	=23	=23
*	*	*^	*	*	*	*	*	*	*	*	*	*	*	*
4G\	.	4en 4c\	2.ryy	.	4g\)	-śim	.	4een/	4cc\	-wio-	.	.	(4een\	.	.
8.G\	.	8.e 8.c\	.	.	8.g\	ser-	.	8.dd/	8.g\	-ne	.	.	8.dd\L)	.	.
16G\	.	16e 16c\	.	.	16g\	-decz-	.	16cc/	16cc\	Mo-	.	.	16cc\Jk	.	.
4G 4GG\	.	4d\	.	.	4g\	-ne	.	4gg 4bn\	4ryy	-nar-	.	.	4gg\	.	.
4G 4GG\	.	4f/	4d\	.	4g\	ży-	.	4b/	4b\	-sze	.	.	4bn\	.	.
*	*	*	*	*	*	*	*	*v	*v	*	*	*	*	*	*
=24	=24	=24	=24	=24	=24	=24	=24	=24	=24	=24	=24	=24	=24	=24
2C/	.	2e/	2c\	.	2g\	-cze-	.	2cc\	go-	.	.	8cc\L	.	.
*	*	*	*	*	*	*	*	*	*	*	*	*tremolo	*	*
.	.	.	.	.	.	.	.	.	.	.	.	16ccc\L	.	.
.	.	.	.	.	.	.	.	.	.	.	.	16ccc\	.	.
.	.	.	.	.	.	.	.	.	.	.	.	16gg\	.	.
.	.	.	.	.	.	.	.	.	.	.	.	16gg\	.	.
.	.	.	.	.	.	.	.	.	.	.	.	16ee\	.	.
.	.	.	.	.	.	.	.	.	.	.	.	16ee\JJ	.	.
*	*	*	*	*	*	*	*	*	*	*	*	*Xtremolo	*	*
8C/	.	8e/	8c\	.	8g\	-nia.	.	8cc\	-dy	.	.	8cc\	.	.
!LO:TX:a:t=V&colon; S&colon;	!	!	!	!	!	!	!	!	!	!	!	!	!	!
8r	.	8r	8ryy	.	8r	.	.	8r	.	.	.	8r	.	.
!!LO:PB:g=original
=!|:	=!|:	=!|:	=!|:	=!|:	=!|:	=!|:	=!|:	=!|:	=!|:	=!|:	=!|:	=!|:	=!|:	=!|:
*>C	*>C	*>C	*>C	*>C	*>C	*>C	*>C	*>C	*>C	*>C	*>C	*>C	*>C	*>C
!	!LO:DY:a:rj	!	!	!LO:DY:a:rj	!	!	!LO:DY:a:rj	!	!	!	!LO:DY:a:rj	!	!	!LO:DY:a
8.C/	p	8.c\	4ryy	p	8.c\	.	p	8.cc\	O-	.	p	8.cc\L	.	mf
16C/	.	16c\	.	.	16c\	.	.	16cc\	-pa-	.	.	16cc\Jk	.	.
*	*	*v	*v	*	*	*	*	*	*	*	*	*	*	*
=25	=25	=25	=25	=25	=25	=25	=25	=25	=25	=25	=25	=25	=25
8E/	.	8B- 8G\	.	8g\	.	.	8b-X\	-trzno-	.	.	1ccT	.	.
8r	.	8r	.	8r	.	.	8r	.	.	.	.	.	.
8C/	.	8c 8E\	.	8e\	.	.	8cc\	-ści	.	.	.	.	.
8r	.	8r	.	8r	.	.	8r	.	.	.	.	.	.
8E/	.	8B- 8G\	.	8g\	.	.	8b-\	dzię-	.	.	.	.	.
8r	.	8r	.	8r	.	.	8r	.	.	.	.	.	.
8C/	.	8c 8E\	.	8e\	.	.	8cc\	-ki	.	.	.	.	.
8r	.	8r	.	8r	.	.	8r	.	.	.	.	.	.
.	.	.	.	.	.	.	.	.	.	.	16qqbn/LL	.	.
.	.	.	.	.	.	.	.	.	.	.	16qqcc/JJ	.	.
=26	=26	=26	=26	=26	=26	=26	=26	=26	=26	=26	=26	=26	=26
8F\	.	8A 8F\	.	8f\	.	.	8a\	chwa-	.	.	8a'\L	.	.
8r	.	8r	.	8r	.	.	8r	.	.	.	8cc'\J	.	.
8C/	.	8c 8A\	.	8a\	.	.	8cc\	-ła,	.	.	4.ff'\	.	.
8r	.	8r	.	8r	.	.	8r	.	.	.	.	.	.
8F\	.	8A 8F\	.	8f\	.	.	8a\	No-	.	.	.	.	.
8r	.	8r	.	8r	.	.	8r	.	.	.	(16aa\LL	.	.
.	.	.	.	.	.	.	.	.	.	.	16gg\JJ	.	.
8C/	.	8c 8A\	.	8a\	.	.	8cc\	-wą	.	.	16ff\LL	.	.
.	.	.	.	.	.	.	.	.	.	.	16ee\	.	.
8r	.	8r	.	8r	.	.	8r	.	.	.	16ff\	.	.
.	.	.	.	.	.	.	.	.	.	.	16dd\JJ)	.	.
=27	=27	=27	=27	=27	=27	=27	=27	=27	=27	=27	=27	=27	=27
8E\	.	8B- 8G\	.	8g\	.	.	8b-\	ra-	.	.	1ccT	.	.
8r	.	8r	.	8r	.	.	8r	.	.	.	.	.	.
8C/	.	8c 8E\	.	8e\	.	.	8cc\	-dość	.	.	.	.	.
8r	.	8r	.	8r	.	.	8r	.	.	.	.	.	.
8E\	.	8B- 8G\	.	8g\	.	.	8b-\	nam	.	.	.	.	.
8r	.	8r	.	8r	.	.	8r	.	.	.	.	.	.
8C/	.	8c 8E\	.	8e\	.	.	8cc\	ze-	.	.	.	.	.
8r	.	8r	.	8r	.	.	8r	.	.	.	.	.	.
=28	=28	=28	=28	=28	=28	=28	=28	=28	=28	=28	=28	=28	=28
*	*	*^	*	*	*	*	*	*	*	*	*	*	*
2F\	.	2c/	2F\	.	(4.f\	.	.	(4.a/	-sła-	.	.	8a'\L	.	.
.	.	.	.	.	.	.	.	.	.	.	.	8cc'\J	.	.
.	.	.	.	.	.	.	.	.	.	.	.	8.ff\L|	.	.
.	.	.	.	.	8a\)	.	.	8cc\)	.	.	.	.	.	.
.	.	.	.	.	.	.	.	.	.	.	.	16ff\Jk|	.	.
!	!	!	!	!	!	!	!	!	!	!	!	!	!	!LO:HP:b
4E\	.	4c/	4G\	.	4g\	.	.	4cc\	-ła,	.	.	(16ff#X\LL	.	<
.	.	.	.	.	.	.	.	.	.	.	.	16gg\	.	.
.	.	.	.	.	.	.	.	.	.	.	.	16aa\	.	.
.	.	.	.	.	.	.	.	.	.	.	.	16bb-\JJ	.	.
8.r	.	8.r	4ryy	.	8.r	.	.	8.r	.	.	.	16bbn\LL	.	.
.	.	.	.	.	.	.	.	.	.	.	.	16ccc\	.	.
.	.	.	.	.	.	.	.	.	.	.	.	16ddd\	.	.
!	!LO:DY:a:rj	!	!	!LO:DY:a:rj	!	!	!LO:DY:a:rj	!	!	!	!LO:DY:a:rj	!	!	!
16E\	f	16c 16G\	.	f	16g\	.	f	16cc\	Ni-	.	f	16eee\JJ)	.	[[
*	*	*v	*v	*	*	*	*	*	*	*	*	*	*	*
!!LO:LB:g=original
=29	=29	=29	=29	=29	=29	=29	=29	=29	=29	=29	=29	=29	=29
*	*	*	*	*^	*	*	*	*	*	*	*	*	*
4.D\	.	4.d 4.A\	.	4a/	4a\	W Świę-	.	4.ff 4.dd\	-biań-	.	.	4.fff\	.	.
.	.	.	.	8a/	8a\	-to	.	.	.	.	.	.	.	.
8D\	.	8d 8A\	.	8a\	8ryy	dro-	.	8ff 8dd\	-skie	.	.	8ff\	.	.
4E\	.	4c#X 4A\	.	4g\	2ryy	-gie-	.	4ee 4cc#X\	no-	.	.	4ee\	.	.
8.F\	.	8.d 8.A\	.	8.f\	.	-go	.	8.dd\	-we	.	.	8.dd\L	.	.
16F\	.	16d 16A\	.	16f\	.	I-	.	16dd\	nad	.	.	16dd\Jk	.	.
*	*	*	*	*v	*v	*	*	*	*	*	*	*	*	*
=30	=30	=30	=30	=30	=30	=30	=30	=30	=30	=30	=30	=30	=30
!LO:TX:a:t=1ma volta	!	!	!	!	!	!	!	!	!	!	!	!	!
*>C1	*>C1	*>C1	*>C1	*>C1	*>C1	*>C1	*>C1	*>C1	*>C1	*>C1	*>C1	*>C1	*>C1
*	*	*^	*	*	*	*	*^	*	*	*	*	*	*
2E^\	.	2d/	2G#X\	.	2g#X\	-mie-	.	2bn^\	2ryy	gro-	.	.	2bn^t\	.	.
4A\	.	4c/	4A\	.	4a\	-nia	.	4cc\	4ryy	-dy	.	.	4cc\	.	.
4F#X\	.	8d/L	4A\	.	(4a\	Gło-	.	8dd/L	4cc\	wzno-	.	.	(8dd\L	.	.
.	.	8e-X/J	.	.	.	.	.	8ee-X/J	.	.	.	.	8ee-X\J)	.	.
=31	=31	=31	=31	=31	=31	=31	=31	=31	=31	=31	=31	=31	=31	=31	=31
4G\	.	4en 4c\	2ryy	.	4gn\)	-śim	.	4een/	4cc\	-wio-	.	.	(4een\	.	.
8.G\	.	8.e 8.c\	.	.	8.g\	ser-	.	8.dd/	8.g\	-ne	.	.	8.dd\L)	.	.
16G\	.	16e 16c\	.	.	16g\	-decz-	.	16cc/	16cc\	Mo-	.	.	16cc\Jk	.	.
4G 4GG/	.	4d/	4d\	.	4g\	-ne	.	4gg/	4bn\	-nar-	.	.	4gg\	.	.
4G 4GG/	.	4f 4d\	4ryy	.	4g\	ży-	.	4b/	4b\	-sze	.	.	4bn\	.	.
*	*	*v	*v	*	*	*	*	*v	*v	*	*	*	*	*	*
=32	=32	=32	=32	=32	=32	=32	=32	=32	=32	=32	=32	=32	=32
*	*	*^	*	*	*	*	*^	*	*	*	*	*	*
2C/	.	2e/	2c\	.	2g\	-cze-	.	2cc/	2cc\	go-	.	.	8cc\L	.	.
*	*	*	*	*	*	*	*	*	*	*	*	*	*tremolo	*	*
.	.	.	.	.	.	.	.	.	.	.	.	.	16ccc\L	.	.
.	.	.	.	.	.	.	.	.	.	.	.	.	16ccc\	.	.
.	.	.	.	.	.	.	.	.	.	.	.	.	16gg\	.	.
.	.	.	.	.	.	.	.	.	.	.	.	.	16gg\	.	.
.	.	.	.	.	.	.	.	.	.	.	.	.	16ee\	.	.
.	.	.	.	.	.	.	.	.	.	.	.	.	16ee\JJ	.	.
*	*	*	*	*	*	*	*	*	*	*	*	*	*Xtremolo	*	*
8C/	.	8e/	8c\	.	8g\	-nia	.	8cc/	8cc\	-dy.	.	.	8cc\	.	.
8r	.	8r	8ryy	.	8r	.	.	8r	8ryy	.	.	.	8r	.	.
*	*	*v	*v	*	*	*	*	*v	*v	*	*	*	*	*	*
!!LO:PB:g=original
=33:|!	=33:|!	=33:|!	=33:|!	=33:|!	=33:|!	=33:|!	=33:|!	=33:|!	=33:|!	=33:|!	=33:|!	=33:|!	=33:|!
!LO:TX:a:t=2da	!	!	!	!	!	!	!	!	!	!	!	!	!
*>C2	*>C2	*>C2	*>C2	*>C2	*>C2	*>C2	*>C2	*>C2	*>C2	*>C2	*>C2	*>C2	*>C2
!	!	!	!	!LO:TX:t=P:problem=wykreślony tekst	!	!	!	!	!	!	!	!	!
2G\	.	2d\	.	2g\	mie-	.	(4.cc/	go-	.	.	(4.cc\	.	.
.	.	.	.	.	.	.	8b-X/)	.	.	.	8b-\)	.	.
8B-\	.	8d\	.	8g\	-nia	.	8g/	-dy	.	.	8g/	.	.
8r	.	8r	.	8r	.	.	8r	.	.	.	8r	.	.
4Bn 4BBn\	.	4f 4d\	.	(4a-X\	Gło-	.	4dd\	Wzno-	.	.	4ddd^<\	.	.
=34	=34	=34	=34	=34	=34	=34	=34	=34	=34	=34	=34	=34	=34
*>D	*>D	*>D	*>D	*>D	*>D	*>D	*>D	*>D	*>D	*>D	*>D	*>D	*>D
*	*	*^	*	*	*	*	*	*	*	*	*	*	*
4c 4C\	.	4f 4c\	2ryy	.	4an\)	.	.	4cc\	-wio-	.	.	(16ccc\LL	.	.
.	.	.	.	.	.	.	.	.	.	.	.	16ccc-X\	.	.
.	.	.	.	.	.	.	.	.	.	.	.	16bb-\	.	.
.	.	.	.	.	.	.	.	.	.	.	.	16aa\JJ	.	.
8.c 8.C\	.	8.f 8.c\	.	.	8.a\	-śim	.	8.cc\	-ne	.	.	16gg\LL	.	.
.	.	.	.	.	.	.	.	.	.	.	.	16ff\	.	.
.	.	.	.	.	.	.	.	.	.	.	.	16ee\	.	.
16c 16C\	.	16c 16A\	.	.	16a\	ser-	.	16ff\	Mo-	.	.	16dd\JJ)	.	.
4c 4C\	.	4c/	4G\	.	4b-\	-decz-	.	4gg\	-nar-	.	.	8cc\	.	.
.	.	.	.	.	.	.	.	.	.	.	.	8r	.	.
4c 4C\	.	4c/	4B-\	.	8.g\	-ne	.	4ee\	-sze	.	.	4ee\	.	.
.	.	.	.	.	16g\	ży-	.	.	.	.	.	.	.	.
=35	=35	=35	=35	=35	=35	=35	=35	=35	=35	=35	=35	=35	=35	=35
*	*	*	*	*	*	*	*	*^	*	*	*	*	*	*
*	*	*	*	*	*	*	*	*	*	*	*	*	*tremolo	*	*
4.c#X 4.C#X^\	.	4.e/	2A\	.	2a^\	-cze-	.	(4.aa 4.ee^<\	4.ryy	go-	.	.	16aaLL 16a^\	.	.
.	.	.	.	.	.	.	.	.	.	.	.	.	16aa 16a\	.	.
.	.	.	.	.	.	.	.	.	.	.	.	.	16aa 16a\	.	.
.	.	.	.	.	.	.	.	.	.	.	.	.	16aaJJ 16a\	.	.
.	.	.	.	.	.	.	.	.	.	.	.	.	16aaLL 16a\	.	.
.	.	.	.	.	.	.	.	.	.	.	.	.	16aa 16a\	.	.
8cn 8Cn\	.	8e-X/	.	.	.	.	.	8ff#X/)	8ee-X\	.	.	.	16ff#X 16a\	.	.
.	.	.	.	.	.	.	.	.	.	.	.	.	16ff#JJ 16a\	.	.
4Bn 4BBn\	.	4d/	4G\	.	4g\	-nia	.	4gg/	4dd\	-dy	.	.	16ggLL 16bn^\	.	.
.	.	.	.	.	.	.	.	.	.	.	.	.	16gg 16b\	.	.
.	.	.	.	.	.	.	.	.	.	.	.	.	16gg 16b\	.	.
.	.	.	.	.	.	.	.	.	.	.	.	.	16ggJJ 16b\	.	.
!	!	!	!	!	!LO:TX:t=P:problem=brak początku łuku	!	!	!	!	!	!	!	!	!	!
4B-X 4BB-X\	.	4c/	4G\	.	(4g\	Gło-	.	4een/	4cc\	wzno-	.	.	16eeLL 16cc^\	.	.
.	.	.	.	.	.	.	.	.	.	.	.	.	16ee 16cc\	.	.
.	.	.	.	.	.	.	.	.	.	.	.	.	16ee 16cc\	.	.
.	.	.	.	.	.	.	.	.	.	.	.	.	16eeJJ 16cc\	.	.
!!LO:LB:g=original
=36	=36	=36	=36	=36	=36	=36	=36	=36	=36	=36	=36	=36	=36	=36	=36
4A 4AA\	.	4c\	2ryy	.	4f\)	.	.	4ff 4cc\	2ryy	-wio-	.	.	16ff\LL	.	.
.	.	.	.	.	.	.	.	.	.	.	.	.	16ff\	.	.
.	.	.	.	.	.	.	.	.	.	.	.	.	16ccc\	.	.
.	.	.	.	.	.	.	.	.	.	.	.	.	16ccc\JJ	.	.
8A 8AA\	.	8c\	.	.	8f\	-[[o]]śim	.	8ff 8cc\	.	-ne	.	.	16ccc\LL	.	.
.	.	.	.	.	.	.	.	.	.	.	.	.	16ccc\	.	.
8A 8AA\	.	8c\	.	.	8f\	ser-	.	8ff 8cc\	.	wzno-	.	.	16ccc\	.	.
.	.	.	.	.	.	.	.	.	.	.	.	.	16ccc\JJ	.	.
4G 4GG\	.	4d/	8c\L	.	4g\	-decz-	.	4dd/	8cc\L	-wio-	.	.	16ccc^<\LL	.	.
.	.	.	.	.	.	.	.	.	.	.	.	.	16ccc\	.	.
.	.	.	8B-\J	.	.	.	.	.	8b-\J	.	.	.	16bb-\	.	.
.	.	.	.	.	.	.	.	.	.	.	.	.	16bb-\	.	.
8G 8GG\	.	8d/	8B-\	.	8g\	-ne	.	8dd/	8b-\	-ne	.	.	16bb-\	.	.
.	.	.	.	.	.	.	.	.	.	.	.	.	16bb-\	.	.
8G 8GG\	.	8d/	8B-\	.	8g\	ży-	.	8gg/	8b-\	Mo-	.	.	16bb-\	.	.
.	.	.	.	.	.	.	.	.	.	.	.	.	16bb-\JJ	.	.
=37	=37	=37	=37	=37	=37	=37	=37	=37	=37	=37	=37	=37	=37	=37	=37
2c 2C\	.	2c/	2A\	.	2f\	-cze-	.	2ff 2a\	2ryy	-nar-	.	.	16aaLL 16cc\	.	.
.	.	.	.	.	.	.	.	.	.	.	.	.	16aa 16cc\	.	.
.	.	.	.	.	.	.	.	.	.	.	.	.	16aa 16cc\	.	.
.	.	.	.	.	.	.	.	.	.	.	.	.	16aa 16cc\	.	.
.	.	.	.	.	.	.	.	.	.	.	.	.	16aa 16cc\	.	.
.	.	.	.	.	.	.	.	.	.	.	.	.	16aa 16cc\	.	.
.	.	.	.	.	.	.	.	.	.	.	.	.	16aa 16cc\	.	.
.	.	.	.	.	.	.	.	.	.	.	.	.	16aaJJ 16cc\	.	.
2c 2C\	.	2e/	2G\	.	2g\	-nia	.	2ee/	2cc\	-sze	.	.	16ggLL 16cc\	.	.
.	.	.	.	.	.	.	.	.	.	.	.	.	16gg 16cc\	.	.
.	.	.	.	.	.	.	.	.	.	.	.	.	16gg 16cc\	.	.
.	.	.	.	.	.	.	.	.	.	.	.	.	16gg 16cc\	.	.
.	.	.	.	.	.	.	.	.	.	.	.	.	16gg 16cc\	.	.
.	.	.	.	.	.	.	.	.	.	.	.	.	16gg 16cc\	.	.
.	.	.	.	.	.	.	.	.	.	.	.	.	16gg 16cc\	.	.
.	.	.	.	.	.	.	.	.	.	.	.	.	16ggJJ 16cc\	.	.
=38	=38	=38	=38	=38	=38	=38	=38	=38	=38	=38	=38	=38	=38	=38	=38
(4.c#X 4.C#X^\	.	4.e/	2A\	.	2a^\	Gło-	.	(4.aa 4.ee^<\	4.ryy	go-	.	.	16aaLL 16a^\	.	.
.	.	.	.	.	.	.	.	.	.	.	.	.	16aa 16a\	.	.
.	.	.	.	.	.	.	.	.	.	.	.	.	16aa 16a\	.	.
.	.	.	.	.	.	.	.	.	.	.	.	.	16aaJJ 16a\	.	.
.	.	.	.	.	.	.	.	.	.	.	.	.	16aaLL 16a\	.	.
.	.	.	.	.	.	.	.	.	.	.	.	.	16aa 16a\	.	.
8cn 8Cn\)	.	8e-X/	.	.	.	.	.	8ff#X/)	8ee-X\	.	.	.	16ff#X 16a\	.	.
.	.	.	.	.	.	.	.	.	.	.	.	.	16ff#JJ 16a\	.	.
4Bn 4BBn\	.	4d/	4G\	.	4g\	-śim	.	4gg/	4dd\	-dy	.	.	16ggLL 16bn^\	.	.
.	.	.	.	.	.	.	.	.	.	.	.	.	16gg 16b\	.	.
.	.	.	.	.	.	.	.	.	.	.	.	.	16gg 16b\	.	.
.	.	.	.	.	.	.	.	.	.	.	.	.	16ggJJ 16b\	.	.
!	!	!	!	!	!	!	!	!LO:SIC:v:s=4een/	!	!	!	!	!	!	!
4B-X 4BB-X\	.	4c/	4G\	.	4g\	ser-	.	4ee-/	4cc\	wzno-	.	.	16eeLL 16cc^\	.	.
.	.	.	.	.	.	.	.	.	.	.	.	.	16ee 16cc\	.	.
.	.	.	.	.	.	.	.	.	.	.	.	.	16ee 16cc\	.	.
.	.	.	.	.	.	.	.	.	.	.	.	.	16eeJJ 16cc\	.	.
=39	=39	=39	=39	=39	=39	=39	=39	=39	=39	=39	=39	=39	=39	=39	=39
4A 4AA\	.	4c/	4c\	.	4f\	-decz-	.	4ff 4cc\	2ryy	-wio-	.	.	16ff\LL	.	.
.	.	.	.	.	.	.	.	.	.	.	.	.	16ff\	.	.
.	.	.	.	.	.	.	.	.	.	.	.	.	16ccc\	.	.
.	.	.	.	.	.	.	.	.	.	.	.	.	16ccc\JJ	.	.
8A 8AA\	.	8c/	8c\	.	8f\	-ne	.	8ff 8cc\	.	-ne	.	.	16ccc\LL	.	.
.	.	.	.	.	.	.	.	.	.	.	.	.	16ccc\	.	.
8A 8AA\	.	8c/	8c\	.	8f\	ser-	.	8ff 8cc\	.	Mo-	.	.	16ccc\	.	.
.	.	.	.	.	.	.	.	.	.	.	.	.	16ccc\JJ	.	.
4G 4GG^\	.	4d/	8c\L	.	4g\	-decz-	.	4dd/	8cc\L	-nar-	.	.	16ccc^\LL	.	.
.	.	.	.	.	.	.	.	.	.	.	.	.	16ccc\	.	.
.	.	.	8B-\J	.	.	.	.	.	8b-\J	.	.	.	16bb-\	.	.
.	.	.	.	.	.	.	.	.	.	.	.	.	16bb-\	.	.
4G 4GG\	.	4d/	4B-\	.	8g\	-ne	.	4gg/	4b-\	-sze	.	.	16bb-\	.	.
.	.	.	.	.	.	.	.	.	.	.	.	.	16bb-\	.	.
.	.	.	.	.	8g\	ży-	.	.	.	.	.	.	16bb-\	.	.
.	.	.	.	.	.	.	.	.	.	.	.	.	16bb-\JJ	.	.
=40	=40	=40	=40	=40	=40	=40	=40	=40	=40	=40	=40	=40	=40	=40	=40
*^	*	*	*	*	*	*	*	*	*	*	*	*	*	*	*
(2c [2C\	2ryy	.	1c	(2A\	.	(2f\	-cze-	.	(2ff/	2a\	go-	.	.	16aaLL 16cc\	.	.
.	.	.	.	.	.	.	.	.	.	.	.	.	.	16aa 16cc\	.	.
.	.	.	.	.	.	.	.	.	.	.	.	.	.	16aa 16cc\	.	.
.	.	.	.	.	.	.	.	.	.	.	.	.	.	16aa 16cc\	.	.
.	.	.	.	.	.	.	.	.	.	.	.	.	.	16aa 16cc\	.	.
.	.	.	.	.	.	.	.	.	.	.	.	.	.	16aa 16cc\	.	.
.	.	.	.	.	.	.	.	.	.	.	.	.	.	16aa 16cc\	.	.
.	.	.	.	.	.	.	.	.	.	.	.	.	.	16aaJJ 16cc\	.	.
2C/])	2C\	.	.	2G\)	.	2g\)	.	.	2ee/)	2b-\	.	.	.	16ggLL 16cc\	.	.
.	.	.	.	.	.	.	.	.	.	.	.	.	.	16gg 16cc\	.	.
.	.	.	.	.	.	.	.	.	.	.	.	.	.	16gg 16cc\	.	.
.	.	.	.	.	.	.	.	.	.	.	.	.	.	16gg 16cc\	.	.
.	.	.	.	.	.	.	.	.	.	.	.	.	.	16gg 16cc\	.	.
.	.	.	.	.	.	.	.	.	.	.	.	.	.	16gg 16cc\	.	.
.	.	.	.	.	.	.	.	.	.	.	.	.	.	16gg 16cc\	.	.
.	.	.	.	.	.	.	.	.	.	.	.	.	.	16ggJJ 16cc\	.	.
*	*	*	*	*	*	*	*	*	*	*	*	*	*	*Xtremolo	*	*
*v	*v	*	*	*	*	*	*	*	*v	*v	*	*	*	*	*	*
!!LO:PB:g=original
=41	=41	=41	=41	=41	=41	=41	=41	=41	=41	=41	=41	=41	=41	=41
4F\	.	4c/	4A\	.	4f\	-nia	.	4ff 4a\	-dy,	.	.	16ff\LL	.	.
.	.	.	.	.	.	.	.	.	.	.	.	16gg\	.	.
.	.	.	.	.	.	.	.	.	.	.	.	16aa\	.	.
.	.	.	.	.	.	.	.	.	.	.	.	16bb-\JJ	.	.
4r	.	4r	4ryy	.	4r	.	.	4r	.	.	.	16ccc\LL	.	.
.	.	.	.	.	.	.	.	.	.	.	.	16ddd\	.	.
.	.	.	.	.	.	.	.	.	.	.	.	16eee\	.	.
.	.	.	.	.	.	.	.	.	.	.	.	16fff\JJ	.	.
*	*	*	*	*	*	*	*	*	*	*	*	*rep	*	*
4.D\	.	4.f 4.d\	2ryy	.	4.a\	.	.	4.ff 4.dd\	O-	.	.	16ff\LL	.	.
.	.	.	.	.	.	.	.	.	.	.	.	16gg\	.	.
.	.	.	.	.	.	.	.	.	.	.	.	16aa\	.	.
.	.	.	.	.	.	.	.	.	.	.	.	16bb-\JJ	.	.
.	.	.	.	.	.	.	.	.	.	.	.	16ccc\LL	.	.
.	.	.	.	.	.	.	.	.	.	.	.	16ddd\	.	.
8d 8D\	.	8f 8d\	.	.	8a\	.	.	8ff 8dd\	-pa-	.	.	16eee\	.	.
.	.	.	.	.	.	.	.	.	.	.	.	16fff\JJ	.	.
*	*	*	*	*	*	*	*	*	*	*	*	*Xrep	*	*
=42	=42	=42	=42	=42	=42	=42	=42	=42	=42	=42	=42	=42	=42	=42
*^	*	*	*	*	*	*	*	*	*	*	*	*	*	*
4.B- 4.BB-\	2ryy	.	4.g 4.d\	2ryy	.	4.b-\	.	.	4.gg 4.dd\	-trzno-	.	.	16ggg\LL	.	.
.	.	.	.	.	.	.	.	.	.	.	.	.	16fff\	.	.
.	.	.	.	.	.	.	.	.	.	.	.	.	16eee\	.	.
.	.	.	.	.	.	.	.	.	.	.	.	.	16ddd\JJ	.	.
.	.	.	.	.	.	.	.	.	.	.	.	.	16ccc\LL	.	.
.	.	.	.	.	.	.	.	.	.	.	.	.	16bb-\	.	.
8B- 8BB-\	.	.	8g 8d\	.	.	8b-\	.	.	8gg 8dd\	-ści	.	.	16aa\	.	.
.	.	.	.	.	.	.	.	.	.	.	.	.	16gg\JJ	.	.
4c 4C\	4ryy	.	4e/	4B-\	.	4g\	.	.	4ee 4cc\	dzię-	.	.	16ff\LL	.	.
.	.	.	.	.	.	.	.	.	.	.	.	.	16ee\	.	.
.	.	.	.	.	.	.	.	.	.	.	.	.	16dd\	.	.
.	.	.	.	.	.	.	.	.	.	.	.	.	16cc\JJ	.	.
4C/	4C\	.	4e/	4B-\	.	4g\	.	.	4ee 4cc\	-ki	.	.	16dd\LL	.	.
.	.	.	.	.	.	.	.	.	.	.	.	.	16cc\	.	.
.	.	.	.	.	.	.	.	.	.	.	.	.	16dd\	.	.
.	.	.	.	.	.	.	.	.	.	.	.	.	16ee\JJ	.	.
*v	*v	*	*	*	*	*	*	*	*	*	*	*	*	*	*
*	*	*v	*v	*	*	*	*	*	*	*	*	*	*	*
=43	=43	=43	=43	=43	=43	=43	=43	=43	=43	=43	=43	=43	=43
*	*	*	*	*	*	*	*	*	*	*	*rep	*	*
!	!	!	!	!	!	!	!	!	!	!	!LO:TX:t=P:problem=dwutaktowa repetycja	!	!
4F\	.	4f 4A\	.	4a\	.	.	4ff 4cc\	chwa-	.	.	16ff\LL	.	.
.	.	.	.	.	.	.	.	.	.	.	16gg\	.	.
.	.	.	.	.	.	.	.	.	.	.	16aa\	.	.
.	.	.	.	.	.	.	.	.	.	.	16bb-\JJ	.	.
4F\	.	4f 4A\	.	4a\	.	.	4ff 4cc\	-ła	.	.	16ccc\LL	.	.
.	.	.	.	.	.	.	.	.	.	.	16ddd\	.	.
.	.	.	.	.	.	.	.	.	.	.	16eee\	.	.
.	.	.	.	.	.	.	.	.	.	.	16fff\JJ	.	.
4D\	.	4f 4d\	.	4a\	.	.	4ff 4dd\	No-	.	.	16ff\LL	.	.
.	.	.	.	.	.	.	.	.	.	.	16gg\	.	.
.	.	.	.	.	.	.	.	.	.	.	16aa\	.	.
.	.	.	.	.	.	.	.	.	.	.	16bb-\JJ	.	.
8D\	.	8f 8d\	.	8a\	.	.	8ff 8dd\	-wą	.	.	16ccc\LL	.	.
.	.	.	.	.	.	.	.	.	.	.	16ddd\	.	.
8d 8D\	.	8f 8d\	.	8a\	.	.	8ff 8dd\	nam	.	.	16eee\	.	.
.	.	.	.	.	.	.	.	.	.	.	16fff\JJ	.	.
=44	=44	=44	=44	=44	=44	=44	=44	=44	=44	=44	=44	=44	=44
*^	*	*^	*	*	*	*	*^	*	*	*	*	*	*
4B- 4BB-\	2ryy	.	4g 4d\	2ryy	.	4b-\	.	.	4gg 4dd\	2ryy	ra-	.	.	16ggg\LL	.	.
.	.	.	.	.	.	.	.	.	.	.	.	.	.	16fff\	.	.
.	.	.	.	.	.	.	.	.	.	.	.	.	.	16eee\	.	.
.	.	.	.	.	.	.	.	.	.	.	.	.	.	16ddd\JJ	.	.
8B- 8BB-\	.	.	8g 8d\	.	.	8b-\	.	.	8gg 8dd\	.	-dość	.	.	16ccc\LL	.	.
.	.	.	.	.	.	.	.	.	.	.	.	.	.	16bb-\	.	.
8B- 8BB-\	.	.	8g 8d\	.	.	8b-\	.	.	8gg 8dd\	.	ze-	.	.	16aa\	.	.
.	.	.	.	.	.	.	.	.	.	.	.	.	.	16gg\JJ	.	.
(4c/	2C\	.	2e/	2B-\	.	2g\	.	.	2ee/	2cc\	-sła-	.	.	16ff\LL	.	.
.	.	.	.	.	.	.	.	.	.	.	.	.	.	16ee\	.	.
.	.	.	.	.	.	.	.	.	.	.	.	.	.	16dd\	.	.
.	.	.	.	.	.	.	.	.	.	.	.	.	.	16cc\JJ	.	.
4C/)	.	.	.	.	.	.	.	.	.	.	.	.	.	16dd\LL	.	.
.	.	.	.	.	.	.	.	.	.	.	.	.	.	16cc\	.	.
.	.	.	.	.	.	.	.	.	.	.	.	.	.	16dd\	.	.
.	.	.	.	.	.	.	.	.	.	.	.	.	.	16ee\JJ	.	.
*	*	*	*	*	*	*	*	*	*	*	*	*	*	*Xrep	*	*
*v	*v	*	*	*	*	*	*	*	*v	*v	*	*	*	*	*	*
!!LO:LB:g=original
=45	=45	=45	=45	=45	=45	=45	=45	=45	=45	=45	=45	=45	=45	=45
8F\	.	8f 8A\	4ryy	.	8a\	.	.	8ff 8cc\	-ła	.	.	8ff\	.	.
8r	.	8r	.	.	8r	.	.	8r	.	.	.	8r	.	.
2C^>/	.	2e/	2c\	.	2cc 2g^<\	.	.	2gg 2ee^\	ra-	.	.	(16ccc^<\LL	.	.
.	.	.	.	.	.	.	.	.	.	.	.	16bbn\	.	.
.	.	.	.	.	.	.	.	.	.	.	.	16ccc\	.	.
.	.	.	.	.	.	.	.	.	.	.	.	16bb\JJ	.	.
.	.	.	.	.	.	.	.	.	.	.	.	16ccc\LL	.	.
.	.	.	.	.	.	.	.	.	.	.	.	16bb\	.	.
.	.	.	.	.	.	.	.	.	.	.	.	16ccc\	.	.
.	.	.	.	.	.	.	.	.	.	.	.	16bb\JJ	.	.
4C/	.	4e/	4c\	.	4cc 4g\	.	.	4gg 4ee\	-dość	.	.	16ccc\LL	.	.
.	.	.	.	.	.	.	.	.	.	.	.	16bb-X\	.	.
.	.	.	.	.	.	.	.	.	.	.	.	16aa\	.	.
.	.	.	.	.	.	.	.	.	.	.	.	16gg\JJ)	.	.
=46	=46	=46	=46	=46	=46	=46	=46	=46	=46	=46	=46	=46	=46	=46
*	*	*	*	*	*	*	*	*	*	*	*	*rep	*	*
8F\	.	8f 8c\	4ryy	.	8cc 8a\	.	.	8aa 8ff\	nam	.	.	8ff\	.	.
8r	.	8r	.	.	8r	.	.	8r	.	.	.	8r	.	.
2C^>/	.	2e/	2c\	.	2cc 2g^<\	.	.	2gg 2ee^\	ra-	.	.	(16ccc^<\LL	.	.
.	.	.	.	.	.	.	.	.	.	.	.	16bbn\	.	.
.	.	.	.	.	.	.	.	.	.	.	.	16ccc\	.	.
.	.	.	.	.	.	.	.	.	.	.	.	16bb\JJ	.	.
.	.	.	.	.	.	.	.	.	.	.	.	16ccc\LL	.	.
.	.	.	.	.	.	.	.	.	.	.	.	16bb\	.	.
.	.	.	.	.	.	.	.	.	.	.	.	16ccc\	.	.
.	.	.	.	.	.	.	.	.	.	.	.	16bb\JJ	.	.
4C/	.	4e/	4c\	.	4cc 4g\	.	.	4gg 4ee\	-dość	.	.	16ccc\LL	.	.
.	.	.	.	.	.	.	.	.	.	.	.	16bb-X\	.	.
.	.	.	.	.	.	.	.	.	.	.	.	16aa\	.	.
.	.	.	.	.	.	.	.	.	.	.	.	16gg\JJ)	.	.
*	*	*	*	*	*	*	*	*	*	*	*	*Xrep	*	*
=47	=47	=47	=47	=47	=47	=47	=47	=47	=47	=47	=47	=47	=47	=47
8F\	.	8f 8c\	4ryy	.	8cc 8a\	.	.	8aa 8ff\	nam	.	.	8ff\	.	.
8r	.	8r	.	.	8r	.	.	8r	.	.	.	8r	.	.
2C^>/	.	2e/	2c\	.	2cc 2g^<\	.	.	2gg 2ee^\	ra-	.	.	(16ccc\LL	.	.
.	.	.	.	.	.	.	.	.	.	.	.	16bbn\	.	.
.	.	.	.	.	.	.	.	.	.	.	.	16ccc\	.	.
.	.	.	.	.	.	.	.	.	.	.	.	16bb\JJ	.	.
.	.	.	.	.	.	.	.	.	.	.	.	16ccc\LL	.	.
.	.	.	.	.	.	.	.	.	.	.	.	16bb\	.	.
.	.	.	.	.	.	.	.	.	.	.	.	16ccc\	.	.
.	.	.	.	.	.	.	.	.	.	.	.	16ccc#X\JJ	.	.
4C/	.	4e 4c/	4B-\	.	4cc 4g\	.	.	4gg 4ee\	-dość	.	.	16ddd\LL	.	.
.	.	.	.	.	.	.	.	.	.	.	.	16ccc#\	.	.
.	.	.	.	.	.	.	.	.	.	.	.	16ddd\	.	.
.	.	.	.	.	.	.	.	.	.	.	.	16eee\JJ)	.	.
!!LO:PB:g=original
=48	=48	=48	=48	=48	=48	=48	=48	=48	=48	=48	=48	=48	=48	=48
*	*	*	*	*	*^	*	*	*^	*	*	*	*	*	*
8D-X/	.	8f/	8A-X\	.	8a-X/	8f\	.	.	8ff/	8ff\	nam	.	.	8fff\	.	.
*	*	*	*	*	*	*	*	*	*	*	*	*	*	*tremolo	*	*
4D-^/	.	4f^/	4F\	.	4f/	4f^\	.	.	4ff/	4ff^\	no-	.	.	16ff^<\LL	.	.
.	.	.	.	.	.	.	.	.	.	.	.	.	.	16ff\	.	.
.	.	.	.	.	.	.	.	.	.	.	.	.	.	16ff\	.	.
.	.	.	.	.	.	.	.	.	.	.	.	.	.	16ff\JJ	.	.
*	*	*	*	*	*	*	*	*	*	*	*	*	*	*Xtremolo	*	*
!	!LO:HP:a	!	!	!	!	!	!	!	!	!	!	!	!	!	!	!LO:HP:b
8D-/	<	8f/	8G\	.	8g/	8g\	.	.	8gg/	8ff\	-wą	.	.	16gg\LL	.	<
.	.	.	.	.	.	.	.	.	.	.	.	.	.	16gg\JJ	.	.
*	*	*	*	*	*	*	*	*	*	*	*	*	*	*tremolo	*	*
!	!	!	!	!	!	!	!	!LO:HP:b	!	!	!	!	!	!	!	!
8D-/	.	8f/	8A-X\	.	8a-X\	4.ryy	.	<	8aa-X/	8ff\	ra-	.	.	16aa-X\LL	.	.
.	.	.	.	.	.	.	.	.	.	.	.	.	.	16aa-\	.	.
8D-/	.	8f/	8An\	.	8an\	.	.	.	8aan/	8ff\	-dość	.	.	16aan\	.	.
.	.	.	.	.	.	.	.	.	.	.	.	.	.	16aa\	.	.
8D-/	.	8f/	8B-X\	.	8b-X\	.	.	.	8bb-X/	8ff\	nam	.	.	16bb-X\	.	.
.	.	.	.	.	.	.	.	.	.	.	.	.	.	16bb-\	.	.
8D-/	[[	8f/	8Bn\	.	8bn/	8a-X\	.	[	8bbn/	8ff\	ze-	.	.	16bbn\	.	.
.	.	.	.	.	.	.	.	.	.	.	.	.	.	16bb\JJ	.	[[
=49	=49	=49	=49	=49	=49	=49	=49	=49	=49	=49	=49	=49	=49	=49	=49	=49
!	!LO:DY:a:rj:t=ffo	!	!	!	!	!	!	!	!	!	!	!	!LO:DY:b:rj:t=ffo	!	!	!LO:DY:b:rj:t=ffo
2.C/	ff	2.f/	2.c\	.	2.cc/	2.an\	.	.	(2ccc/	2.ff\	-sła-	.	ff	16cccLL 16a\	.	ff
.	.	.	.	.	.	.	.	.	.	.	.	.	.	16ccc 16a\	.	.
.	.	.	.	.	.	.	.	.	.	.	.	.	.	16ccc 16a\	.	.
.	.	.	.	.	.	.	.	.	.	.	.	.	.	16ccc 16a\	.	.
.	.	.	.	.	.	.	.	.	.	.	.	.	.	16ccc 16a\	.	.
.	.	.	.	.	.	.	.	.	.	.	.	.	.	16ccc 16a\	.	.
.	.	.	.	.	.	.	.	.	.	.	.	.	.	16ccc 16a\	.	.
.	.	.	.	.	.	.	.	.	.	.	.	.	.	16cccJJ 16a\	.	.
.	.	.	.	.	.	.	.	.	4aa/)	.	.	.	.	16aaLL 16a\	.	.
.	.	.	.	.	.	.	.	.	.	.	.	.	.	16aa 16a\	.	.
.	.	.	.	.	.	.	.	.	.	.	.	.	.	16aa 16a\	.	.
.	.	.	.	.	.	.	.	.	.	.	.	.	.	16aaJJ 16a\	.	.
4C/	.	4f/	4c\	.	4cc/	4a\	.	.	4ff/	4ff\	-ła	.	.	16ffLL 16a\	.	.
.	.	.	.	.	.	.	.	.	.	.	.	.	.	16ff 16a\	.	.
.	.	.	.	.	.	.	.	.	.	.	.	.	.	16ff 16a\	.	.
.	.	.	.	.	.	.	.	.	.	.	.	.	.	16ffJJ 16a\	.	.
=50	=50	=50	=50	=50	=50	=50	=50	=50	=50	=50	=50	=50	=50	=50	=50	=50
2C/	.	2f/	2c\	.	2cc/	2g\	.	.	2gg/	2ff\	nam	.	.	16gg\LL	.	.
.	.	.	.	.	.	.	.	.	.	.	.	.	.	16gg\	.	.
.	.	.	.	.	.	.	.	.	.	.	.	.	.	16gg\	.	.
.	.	.	.	.	.	.	.	.	.	.	.	.	.	16gg\	.	.
.	.	.	.	.	.	.	.	.	.	.	.	.	.	16gg\	.	.
.	.	.	.	.	.	.	.	.	.	.	.	.	.	16gg\	.	.
.	.	.	.	.	.	.	.	.	.	.	.	.	.	16gg\	.	.
.	.	.	.	.	.	.	.	.	.	.	.	.	.	16gg\JJ	.	.
2C/	.	2e/	2c\	.	2cc/	2g\	.	.	2ccc/	2ee\	ze-	.	.	16ccc\LL	.	.
.	.	.	.	.	.	.	.	.	.	.	.	.	.	16ccc\	.	.
.	.	.	.	.	.	.	.	.	.	.	.	.	.	16ccc\	.	.
.	.	.	.	.	.	.	.	.	.	.	.	.	.	16ccc\	.	.
.	.	.	.	.	.	.	.	.	.	.	.	.	.	16ccc\	.	.
.	.	.	.	.	.	.	.	.	.	.	.	.	.	16ccc\	.	.
.	.	.	.	.	.	.	.	.	.	.	.	.	.	16ccc\	.	.
.	.	.	.	.	.	.	.	.	.	.	.	.	.	16ccc\JJ	.	.
*	*	*	*	*	*	*	*	*	*	*	*	*	*	*Xtremolo	*	*
*	*	*	*	*	*v	*v	*	*	*	*	*	*	*	*	*	*
*	*	*	*	*	*	*	*	*v	*v	*	*	*	*	*	*
=51	=51	=51	=51	=51	=51	=51	=51	=51	=51	=51	=51	=51	=51	=51
[1F	.	[1f	[>1c [>1A	.	[1cc [>1a	.	.	[1ff	-sła-	.	.	8ff\	.	.
.	.	.	.	.	.	.	.	.	.	.	.	8r	.	.
*	*	*	*	*	*	*	*	*	*	*	*	*tremolo	*	*
.	.	.	.	.	.	.	.	.	.	.	.	16fff\LL	.	.
.	.	.	.	.	.	.	.	.	.	.	.	16fff\	.	.
.	.	.	.	.	.	.	.	.	.	.	.	16fff\	.	.
.	.	.	.	.	.	.	.	.	.	.	.	16fff\JJ	.	.
.	.	.	.	.	.	.	.	.	.	.	.	16ccc\LL	.	.
.	.	.	.	.	.	.	.	.	.	.	.	16ccc\	.	.
.	.	.	.	.	.	.	.	.	.	.	.	16ccc\	.	.
.	.	.	.	.	.	.	.	.	.	.	.	16ccc\JJ	.	.
.	.	.	.	.	.	.	.	.	.	.	.	16aa\LL	.	.
.	.	.	.	.	.	.	.	.	.	.	.	16aa\	.	.
.	.	.	.	.	.	.	.	.	.	.	.	16aa\	.	.
.	.	.	.	.	.	.	.	.	.	.	.	16aa\JJ	.	.
!!LO:LB:g=original
=52	=52	=52	=52	=52	=52	=52	=52	=52	=52	=52	=52	=52	=52	=52
!	!	!	!LO:TX:b:t=P:problem=koniec ligatury na dole	!	!	!	!	!	!	!	!	!	!	!
1F_	.	1f_	1c_> 1A_	.	1cc_ 1a_>	.	.	1ff_	.	.	.	16ff\LL	.	.
.	.	.	.	.	.	.	.	.	.	.	.	16ff\	.	.
.	.	.	.	.	.	.	.	.	.	.	.	16ff\	.	.
.	.	.	.	.	.	.	.	.	.	.	.	16ff\JJ	.	.
.	.	.	.	.	.	.	.	.	.	.	.	16ff\LL	.	.
.	.	.	.	.	.	.	.	.	.	.	.	16ff\	.	.
.	.	.	.	.	.	.	.	.	.	.	.	16ff\	.	.
.	.	.	.	.	.	.	.	.	.	.	.	16ff\JJ	.	.
.	.	.	.	.	.	.	.	.	.	.	.	16cc\LL	.	.
.	.	.	.	.	.	.	.	.	.	.	.	16cc\	.	.
.	.	.	.	.	.	.	.	.	.	.	.	16cc\	.	.
.	.	.	.	.	.	.	.	.	.	.	.	16cc\JJ	.	.
.	.	.	.	.	.	.	.	.	.	.	.	16a/LL	.	.
.	.	.	.	.	.	.	.	.	.	.	.	16a/	.	.
.	.	.	.	.	.	.	.	.	.	.	.	16a/	.	.
.	.	.	.	.	.	.	.	.	.	.	.	16a/JJ	.	.
=53	=53	=53	=53	=53	=53	=53	=53	=53	=53	=53	=53	=53	=53	=53
1F_	.	1f_	1c_> 1A_	.	1cc_ 1a_>	.	.	1ff_	.	.	.	16f/LL	.	.
.	.	.	.	.	.	.	.	.	.	.	.	16f/	.	.
.	.	.	.	.	.	.	.	.	.	.	.	16f/	.	.
.	.	.	.	.	.	.	.	.	.	.	.	16f/JJ	.	.
.	.	.	.	.	.	.	.	.	.	.	.	16fff\LL	.	.
.	.	.	.	.	.	.	.	.	.	.	.	16fff\	.	.
.	.	.	.	.	.	.	.	.	.	.	.	16fff\	.	.
.	.	.	.	.	.	.	.	.	.	.	.	16fff\JJ	.	.
.	.	.	.	.	.	.	.	.	.	.	.	16ccc\LL	.	.
.	.	.	.	.	.	.	.	.	.	.	.	16ccc\	.	.
.	.	.	.	.	.	.	.	.	.	.	.	16ccc\	.	.
.	.	.	.	.	.	.	.	.	.	.	.	16ccc\JJ	.	.
.	.	.	.	.	.	.	.	.	.	.	.	16aa\LL	.	.
.	.	.	.	.	.	.	.	.	.	.	.	16aa\	.	.
.	.	.	.	.	.	.	.	.	.	.	.	16aa\	.	.
.	.	.	.	.	.	.	.	.	.	.	.	16aa\JJ	.	.
=54	=54	=54	=54	=54	=54	=54	=54	=54	=54	=54	=54	=54	=54	=54
1F]	.	1f]	1c] 1A]	.	1cc] 1a]	.	.	1ff]	.	.	.	16ff\LL	.	.
.	.	.	.	.	.	.	.	.	.	.	.	16ff\	.	.
.	.	.	.	.	.	.	.	.	.	.	.	16ff\	.	.
.	.	.	.	.	.	.	.	.	.	.	.	16ff\JJ	.	.
.	.	.	.	.	.	.	.	.	.	.	.	16ff\LL	.	.
.	.	.	.	.	.	.	.	.	.	.	.	16ff\	.	.
.	.	.	.	.	.	.	.	.	.	.	.	16ff\	.	.
.	.	.	.	.	.	.	.	.	.	.	.	16ff\JJ	.	.
.	.	.	.	.	.	.	.	.	.	.	.	16cc\LL	.	.
.	.	.	.	.	.	.	.	.	.	.	.	16cc\	.	.
.	.	.	.	.	.	.	.	.	.	.	.	16cc\	.	.
.	.	.	.	.	.	.	.	.	.	.	.	16cc\JJ	.	.
.	.	.	.	.	.	.	.	.	.	.	.	16a/LL	.	.
.	.	.	.	.	.	.	.	.	.	.	.	16a/	.	.
.	.	.	.	.	.	.	.	.	.	.	.	16a/	.	.
.	.	.	.	.	.	.	.	.	.	.	.	16a/JJ	.	.
*	*	*	*	*	*	*	*	*	*	*	*	*Xtremolo	*	*
=55	=55	=55	=55	=55	=55	=55	=55	=55	=55	=55	=55	=55	=55	=55
!	!	!	!	!	!	!	!	!	!	!	!	!LO:TX:a:t=fine	!	!
4F\	.	4f/	4c 4A\	.	4cc 4a\	.	.	4ff\	-ła.	.	.	4f/	.	.
!LO:TX:b:i:t=fine	!	!	!	!	!	!	!	!	!	!	!	!LO:TX:t=P:problem=dwie kreski i fermata	!	!
4r	.	4r	4ryy	.	4r	.	.	4r	.	.	.	4ff 4a\	.	.
2r	.	2r	2ryy	.	2r	.	.	2r	.	.	.	8r	.	.
.	.	.	.	.	.	.	.	.	.	.	.	8f/L	.	.
.	.	.	.	.	.	.	.	.	.	.	.	8e-X/	.	.
.	.	.	.	.	.	.	.	.	.	.	.	8c/J	.	.
*	*	*v	*v	*	*	*	*	*	*	*	*	*	*	*
!!LO:PB:g=original
=56||	=56||	=56||	=56||	=56||	=56||	=56||	=56||	=56||	=56||	=56||	=56||	=56||	=56||
*>E	*>E	*>E	*>E	*>E	*>E	*>E	*>E	*>E	*>E	*>E	*>E	*>E	*>E
!!!OMD: Adagio
*k[b-e-]	*	*k[b-e-]	*	*k[b-e-]	*	*	*k[b-e-]	*	*	*	*k[b-e-]	*	*
*M3/4	*	*M3/4	*	*M3/4	*	*	*M3/4	*	*	*	*M3/4	*	*
2.ryy	.	2.ryy	.	2.ryy	.	.	2.ryy	.	.	.	4.B-/	.	.
.	.	.	.	.	.	.	.	.	.	.	8r	.	.
.	.	.	.	.	.	.	.	.	.	.	8.r	.	.
.	.	.	.	.	.	.	.	.	.	.	16bb- 16dd\	.	.
=57	=57	=57	=57	=57	=57	=57	=57	=57	=57	=57	=57	=57	=57
2.ryy	.	2.ryy	.	2.ryy	.	.	2.ryy	.	.	.	2bb- 2dd;\	.	.
.	.	.	.	.	.	.	.	.	.	.	(8.f/L	w Wszech-	.
.	.	.	.	.	.	.	.	.	.	.	16b-/Jk)	.	.
=58	=58	=58	=58	=58	=58	=58	=58	=58	=58	=58	=58	=58	=58
2.ryy	.	2.ryy	.	2.ryy	.	.	2.ryy	.	.	.	4dd\	-wład-	.
.	.	.	.	.	.	.	.	.	.	.	8dd\	-cy	.
.	.	.	.	.	.	.	.	.	.	.	8dd\	sta-	.
.	.	.	.	.	.	.	.	.	.	.	8b-\	-ią	.
.	.	.	.	.	.	.	.	.	.	.	8dd\	Ko-	.
=59	=59	=59	=59	=59	=59	=59	=59	=59	=59	=59	=59	=59	=59
2.ryy	.	2.ryy	.	2.ryy	.	.	2.ryy	.	.	.	8.ff\L	-ście-	.
.	.	.	.	.	.	.	.	.	.	.	16cc\Jk	.	.
.	.	.	.	.	.	.	.	.	.	.	4cc\	-le	.
.	.	.	.	.	.	.	.	.	.	.	8.dd\	Któ-	.
.	.	.	.	.	.	.	.	.	.	.	16dd\	-rzy	.
!!LO:LB:g=original
=60	=60	=60	=60	=60	=60	=60	=60	=60	=60	=60	=60	=60	=60
2.ryy	.	2.ryy	.	2.ryy	.	.	2.ryy	.	.	.	4.b-\	da-	.
.	.	.	.	.	.	.	.	.	.	.	8b-\	-rząc	.
.	.	.	.	.	.	.	.	.	.	.	8.ee-\	do-	.
.	.	.	.	.	.	.	.	.	.	.	16ee-\	-broć	.
=61	=61	=61	=61	=61	=61	=61	=61	=61	=61	=61	=61	=61	=61
2.ryy	.	2.ryy	.	2.ryy	.	.	2.ryy	.	.	.	8.bn^\L	cno-	.
.	.	.	.	.	.	.	.	.	.	.	16cc\Jk	.	.
.	.	.	.	.	.	.	.	.	.	.	4cc\	-tę	.
!	!	!	!	!	!	!	!	!	!	!	!	!	!LO:HP:a
.	.	.	.	.	.	.	.	.	.	.	(8.cc#X\L	Jak	<
.	.	.	.	.	.	.	.	.	.	.	16dd\Jk)	.	[[
=62	=62	=62	=62	=62	=62	=62	=62	=62	=62	=62	=62	=62	=62
2.ryy	.	2.ryy	.	2.ryy	.	.	2.ryy	.	.	.	4dd\	ze-	.
.	.	.	.	.	.	.	.	.	.	.	8dd\	-słał	.
.	.	.	.	.	.	.	.	.	.	.	8dd\	srebr-	.
.	.	.	.	.	.	.	.	.	.	.	8b-\	-ne	.
.	.	.	.	.	.	.	.	.	.	.	8dd\	we-	.
=63	=63	=63	=63	=63	=63	=63	=63	=63	=63	=63	=63	=63	=63
2.ryy	.	2.ryy	.	2.ryy	.	.	2.ryy	.	.	.	([8ff\L	-se-	.
.	.	.	.	.	.	.	.	.	.	.	32ff\LL]	.	.
.	.	.	.	.	.	.	.	.	.	.	32gg\	.	.
.	.	.	.	.	.	.	.	.	.	.	32ff\	.	.
.	.	.	.	.	.	.	.	.	.	.	32ee-X\JJJ)	.	.
.	.	.	.	.	.	.	.	.	.	.	4cc\	-le	.
.	.	.	.	.	.	.	.	.	.	.	4dd\	Tak	.
!!LO:LB:g=original
=64	=64	=64	=64	=64	=64	=64	=64	=64	=64	=64	=64	=64	=64
2.ryy	.	2.ryy	.	2.ryy	.	.	2.ryy	.	.	.	4ee-\	ze-	.
.	.	.	.	.	.	.	.	.	.	.	8.cc\L	-szle	.
.	.	.	.	.	.	.	.	.	.	.	16gg\Jk	we-	.
.	.	.	.	.	.	.	.	.	.	.	8.a\L	-se-	.
.	.	.	.	.	.	.	.	.	.	.	16ff\Jk	-le	.
=65	=65	=65	=65	=65	=65	=65	=65	=65	=65	=65	=65	=65	=65
2.ryy	.	2.ryy	.	2.ryy	.	.	2.ryy	.	.	.	4b-\	zło-	.
.	.	.	.	.	.	.	.	.	.	.	8b-\	-te	.
!	!	!	!	!	!	!	!	!	!	!	!LO:TUP:b:problem=łuczek zamiast numeru	!	!
.	.	.	.	.	.	.	.	.	.	.	(>24d/LL	O-	.
.	.	.	.	.	.	.	.	.	.	.	24c#X/	.	.
.	.	.	.	.	.	.	.	.	.	.	24d/JJ	.	.
!	!	!	!	!	!	!	!	!	!	!	!LO:TUP:b:problem=łuczek zamiast numeru	!	!
.	.	.	.	.	.	.	.	.	.	.	24e-/LL	.	.
.	.	.	.	.	.	.	.	.	.	.	24d/	.	.
.	.	.	.	.	.	.	.	.	.	.	24e-/JJ	.	.
!	!	!	!	!	!	!	!	!	!	!	!LO:TUP:b:problem=łuczek zamiast numeru	!	!
.	.	.	.	.	.	.	.	.	.	.	24f/LL	.	.
.	.	.	.	.	.	.	.	.	.	.	24en/	-pa-	.
.	.	.	.	.	.	.	.	.	.	.	24f/JJ)	.	.
=66	=66	=66	=66	=66	=66	=66	=66	=66	=66	=66	=66	=66	=66
!	!	!	!	!	!	!	!	!	!	!	!	!	!LO:HP:a
2.ryy	.	2.ryy	.	2.ryy	.	.	2.ryy	.	.	.	(>[8g/L	-trzno-	<
.	.	.	.	.	.	.	.	.	.	.	(32g/LL]	.	.
!	!	!	!	!	!	!	!	!	!	!	!	!	!LO:HP:a
.	.	.	.	.	.	.	.	.	.	.	32f/	.	[ >
.	.	.	.	.	.	.	.	.	.	.	32e-/	.	.
.	.	.	.	.	.	.	.	.	.	.	32d/JJJ	.	.
.	.	.	.	.	.	.	.	.	.	.	8c/))	-sci	]
!	!	!	!	!	!	!	!	!	!	!	!LO:TUP:a:problem=łuczek zamiast numeru	!	!
.	.	.	.	.	.	.	.	.	.	.	(24cc\LL	O-	.
.	.	.	.	.	.	.	.	.	.	.	24bn\	.	.
.	.	.	.	.	.	.	.	.	.	.	24cc\JJ	.	.
!	!	!	!	!	!	!	!	!	!	!	!LO:TUP:a:problem=łuczek zamiast numeru	!	!
.	.	.	.	.	.	.	.	.	.	.	24dd\LL	.	.
.	.	.	.	.	.	.	.	.	.	.	24cc#X\	.	.
.	.	.	.	.	.	.	.	.	.	.	24dd\JJ	.	.
!	!	!	!	!	!	!	!	!	!	!	!LO:TUP:a:problem=łuczek zamiast numeru	!	!
.	.	.	.	.	.	.	.	.	.	.	24ee-\LL	-pa-	.
.	.	.	.	.	.	.	.	.	.	.	24dd\	.	.
.	.	.	.	.	.	.	.	.	.	.	24ee-\JJ)	.	.
!!LO:LB:g=original
=67	=67	=67	=67	=67	=67	=67	=67	=67	=67	=67	=67	=67	=67
!	!	!	!	!	!	!	!	!	!	!	!	!	!LO:HP:b
2.ryy	.	2.ryy	.	2.ryy	.	.	2.ryy	.	.	.	([8ff\L	-trzno-	<
.	.	.	.	.	.	.	.	.	.	.	32ff\LL]	.	.
!	!	!	!	!	!	!	!	!	!	!	!	!	!LO:HP:b
.	.	.	.	.	.	.	.	.	.	.	32gg\	.	[ >
.	.	.	.	.	.	.	.	.	.	.	32ff\	.	.
.	.	.	.	.	.	.	.	.	.	.	32ee-\JJJ	.	]
.	.	.	.	.	.	.	.	.	.	.	8dd\)	-ści	.
!	!	!	!	!	!	!	!	!	!	!	!LO:TUP:a:problem=łuczek zamiast numeru	!	!LO:HP:b
.	.	.	.	.	.	.	.	.	.	.	(24dd\LL	Tak	<
.	.	.	.	.	.	.	.	.	.	.	24cc\	.	.
.	.	.	.	.	.	.	.	.	.	.	24dd\JJ	.	.
!	!	!	!	!	!	!	!	!	!	!	!LO:TUP:a:problem=łuczek zamiast numeru	!	!
.	.	.	.	.	.	.	.	.	.	.	24ee-\LL	.	.
.	.	.	.	.	.	.	.	.	.	.	24dd\	.	.
.	.	.	.	.	.	.	.	.	.	.	24ee-\JJ	.	.
!	!	!	!	!	!	!	!	!	!	!	!LO:TUP:a:problem=łuczek zamiast numeru	!	!
.	.	.	.	.	.	.	.	.	.	.	24ff\LL	.	.
.	.	.	.	.	.	.	.	.	.	.	24een\	.	.
.	.	.	.	.	.	.	.	.	.	.	24ff\JJ)	.	[[
=68	=68	=68	=68	=68	=68	=68	=68	=68	=68	=68	=68	=68	=68
!	!	!	!	!	!	!	!	!	!	!	!	!	!LO:DY:a:rj
2.ryy	.	2.ryy	.	2.ryy	.	.	2.ryy	.	.	.	(8.ee-\L	ze-	f
.	.	.	.	.	.	.	.	.	.	.	16bb-\Jk)	.	.
.	.	.	.	.	.	.	.	.	.	.	4bb-\	-szlesz	.
.	.	.	.	.	.	.	.	.	.	.	8r	.	.
.	.	.	.	.	.	.	.	.	.	.	8een\	we-	.
=69	=69	=69	=69	=69	=69	=69	=69	=69	=69	=69	=69	=69	=69
!	!	!	!	!	!	!	!	!	!	!	!LO:TX:t=P:problem=diminuendolike accent	!	!
2.ryy	.	2.ryy	.	2.ryy	.	.	2.ryy	.	.	.	([8gg^<\L	-se-	.
.	.	.	.	.	.	.	.	.	.	.	32gg\LL]	.	.
.	.	.	.	.	.	.	.	.	.	.	32ff\	.	.
.	.	.	.	.	.	.	.	.	.	.	32dd\	.	.
.	.	.	.	.	.	.	.	.	.	.	32b-\JJJ	.	.
.	.	.	.	.	.	.	.	.	.	.	8f/)	-le	.
.	.	.	.	.	.	.	.	.	.	.	16r	.	.
!	!	!	!	!	!	!	!	!	!	!	!	!	!LO:DY:a:rj
.	.	.	.	.	.	.	.	.	.	.	16f/	we-	p
.	.	.	.	.	.	.	.	.	.	.	8.dd\	-se-	.
.	.	.	.	.	.	.	.	.	.	.	16cc\	-le	.
!!LO:PB:g=original
=70	=70	=70	=70	=70	=70	=70	=70	=70	=70	=70	=70	=70	=70
2.ryy	.	2.ryy	.	2.ryy	.	.	2.ryy	.	.	.	4bn^/	zło-	.
.	.	.	.	.	.	.	.	.	.	.	8cc\	-te	.
.	.	.	.	.	.	.	.	.	.	.	8dd\	we-	.
!	!	!	!	!	!	!	!	!	!	!	!LO:TUP:a:problem=klamra łukowa, łuczek zamiast numeru	!	!
.	.	.	.	.	.	.	.	.	.	.	12ee-\L	-se-	.
.	.	.	.	.	.	.	.	.	.	.	12cc\J	.	.
.	.	.	.	.	.	.	.	.	.	.	12gg\	-le	.
=71	=71	=71	=71	=71	=71	=71	=71	=71	=71	=71	=71	=71	=71
2.ryy	.	2.ryy	.	2.ryy	.	.	2.ryy	.	.	.	(4b-\	zło-	.
.	.	.	.	.	.	.	.	.	.	.	16cc\LL	.	.
.	.	.	.	.	.	.	.	.	.	.	16b-\	.	.
.	.	.	.	.	.	.	.	.	.	.	16a\	.	.
.	.	.	.	.	.	.	.	.	.	.	16b-\JJ	.	.
.	.	.	.	.	.	.	.	.	.	.	8.cc\L	.	.
.	.	.	.	.	.	.	.	.	.	.	16dd\Jk)	.	.
=72	=72	=72	=72	=72	=72	=72	=72	=72	=72	=72	=72	=72	=72
2.ryy	.	2.ryy	.	2.ryy	.	.	2.ryy	.	.	.	8b-\	-te	.
.	.	.	.	.	.	.	.	.	.	.	8r	.	.
.	.	.	.	.	.	.	.	.	.	.	4r	.	.
!	!	!	!	!	!	!	!	!	!	!	!	!	!LO:HP:a
.	.	.	.	.	.	.	.	.	.	.	[4f/	Jak	<[
=73	=73	=73	=73	=73	=73	=73	=73	=73	=73	=73	=73	=73	=73
2.ryy	.	2.ryy	.	2.ryy	.	.	2.ryy	.	.	.	(8f/L]	.	.
.	.	.	.	.	.	.	.	.	.	.	16b-^>/Jk)	.	.
.	.	.	.	.	.	.	.	.	.	.	16r	.	.
.	.	.	.	.	.	.	.	.	.	.	(8d/L	ze-	.
.	.	.	.	.	.	.	.	.	.	.	16f^>/Jk)	.	.
.	.	.	.	.	.	.	.	.	.	.	16r	.	.
.	.	.	.	.	.	.	.	.	.	.	(8B-/L	-słał	.
.	.	.	.	.	.	.	.	.	.	.	16d^>/Jk)	.	.
.	.	.	.	.	.	.	.	.	.	.	16r	.	.
!!LO:LB:g=original
=74	=74	=74	=74	=74	=74	=74	=74	=74	=74	=74	=74	=74	=74
!	!	!LO:TX:t=P:problem=znak G- poprawiony na B-	!	!	!	!	!LO:TX:t=P::problem=na marginesie opis w pionie&colon; Choro	!	!	!	!	!	!
4r	.	4r	.	4r	.	.	4r	.	.	.	16f/LL	srebr-	.
.	.	.	.	.	.	.	.	.	.	.	16B-/JJ	.	.
.	.	.	.	.	.	.	.	.	.	.	16.d/	-ne	.
.	.	.	.	.	.	.	.	.	.	.	32g/	we-	.
4r	.	4r	.	4r	.	.	4r	.	.	.	8.f/L	-se-	.
.	.	.	.	.	.	.	.	.	.	.	16e-/Jk	.	.
8.r	.	8.r	.	8.r	.	.	8.r	.	.	.	8d/	-le	.
.	.	.	.	.	.	.	.	.	.	.	16r	.	.
!	!LO:DY:a:rj	!	!	!	!	!	!	!	!	!LO:DY:a:rj	!	!	!LO:DY:a:rj
16F\	f	16c 16A\	.	16f\	Ser-	.	16cc 16a\	Jak	.	f	16cc 16f\	.	f
=75	=75	=75	=75	=75	=75	=75	=75	=75	=75	=75	=75	=75	=75
4D\	.	4f 4B-\	.	4f\	-decz-	.	4ff 4b-\	ze-	.	.	4ff 4b- 4d\	.	.
8..G\	.	8.d 8.B-\	.	8..g\	-ne	.	8..dd 8..b-\	-szlesz	.	.	(8dd\L	.	.
.	.	.	.	.	.	.	.	.	.	.	32ee-\LL	.	.
.	.	.	.	.	.	.	.	.	.	.	32dd\	.	.
.	.	16d 16B-\	.	.	.	.	.	.	.	.	32cc\JJJ	.	.
32G\	.	.	.	32g\	gło-	.	32dd 32b-\	we-	.	.	32dd\)	.	.
8.C\	.	8.e- 8.c\	.	8.g\	-śim	.	8.ee- 8.cc\	-se-	.	.	8.ee-\	.	.
16F\	.	16c 16A\	.	16f\	ży-	.	16cc 16a\	-le	.	.	16cc\	.	.
=76	=76	=76	=76	=76	=76	=76	=76	=76	=76	=76	=76	=76	=76
4F 4BB-/	.	(8.c#XL 8.A^\	.	4f\	-cze-	.	(8.cc#XL 8.a^\	zło-	.	.	8.cc#X\L	.	.
.	.	16dJk 16B-\)	.	.	.	.	16ddJk 16b-\)	.	.	.	16dd\Jk	.	.
8F 8BB-/	.	8d 8B-\	.	8f\	-nia	.	8dd 8b-\	-te	.	.	8dd\	.	.
8r	.	8r	.	8r	.	.	8r	.	.	.	8r	.	.
4r	.	4r	.	4r	.	.	4r	.	.	.	[4ff\	Jak	.
!!LO:PB:g=original
=77	=77	=77	=77	=77	=77	=77	=77	=77	=77	=77	=77	=77	=77
2.r	.	2.r	.	2.r	.	.	2.r	.	.	.	(8ff\L_	.	.
.	.	.	.	.	.	.	.	.	.	.	32ff\LL]	.	.
.	.	.	.	.	.	.	.	.	.	.	32gg\	.	.
.	.	.	.	.	.	.	.	.	.	.	32aa\	.	.
.	.	.	.	.	.	.	.	.	.	.	32bb-\JJJ)	.	.
.	.	.	.	.	.	.	.	.	.	.	([8dd\L	ze-	.
.	.	.	.	.	.	.	.	.	.	.	32dd\LL]	.	.
.	.	.	.	.	.	.	.	.	.	.	32ee-\	.	.
.	.	.	.	.	.	.	.	.	.	.	32een\	.	.
.	.	.	.	.	.	.	.	.	.	.	32ff\JJJ)	.	.
.	.	.	.	.	.	.	.	.	.	.	([8b-\L	-słał	.
.	.	.	.	.	.	.	.	.	.	.	32b-\LL]	.	.
.	.	.	.	.	.	.	.	.	.	.	32ccn\	.	.
.	.	.	.	.	.	.	.	.	.	.	32cc#X\	.	.
.	.	.	.	.	.	.	.	.	.	.	32dd\JJJ)	.	.
=78	=78	=78	=78	=78	=78	=78	=78	=78	=78	=78	=78	=78	=78
4r	.	4r	.	4r	.	.	4r	.	.	.	16f/LL	srebr-	.
!	!	!	!	!	!	!	!	!	!	!	!	!	!LO:HP:a
.	.	.	.	.	.	.	.	.	.	.	16b-/JJ	.	<
.	.	.	.	.	.	.	.	.	.	.	16.dd\	-ne	.
.	.	.	.	.	.	.	.	.	.	.	32gg\	we-	[
!	!	!	!	!	!	!	!	!	!	!	!	!	!LO:HP:a
4r	.	4r	.	4r	.	.	4r	.	.	.	8.ff\L	-se-	>
.	.	.	.	.	.	.	.	.	.	.	16ee-\Jk	.	]
8.r	.	8.r	.	8.r	.	.	8.r	.	.	.	8dd\	-le	.
.	.	.	.	.	.	.	.	.	.	.	16r	.	.
!	!LO:DY:a:rj	!	!LO:DY:a:rj	!	!	!	!	!	!	!LO:DY:a:rj	!	!	!
16F\	f	16c 16A\	f	16f\	Ser-	.	16cc 16a\	Niech	.	f	16cc\	Tak	.
=79	=79	=79	=79	=79	=79	=79	=79	=79	=79	=79	=79	=79	=79
4D\	.	4f 4B-\	.	4f\	-decz-	.	4ff 4b-\	ze-	.	.	4ff 4b- 4d\	ze-	.
8..G\	.	8..d 8..B-\	.	8..g\	-ne	.	8..dd 8..b-\	-szle	.	.	(8dd\L	-szle	.
.	.	.	.	.	.	.	.	.	.	.	32ee-\LL	.	.
.	.	.	.	.	.	.	.	.	.	.	32dd\	.	.
.	.	.	.	.	.	.	.	.	.	.	32cc\JJJ)	.	.
32G\	.	32d 32B-\	.	32g\	gło-	.	32dd 32b-\	we-	.	.	32dd\	.	.
8.C\	.	8.e- 8.c\	.	8.g\	-śim	.	8.ee- 8.cc\	-se-	.	.	8.ee-\	.	.
16F\	.	16c 16A\	.	16f\	ży-	.	16cc 16a\	-le	.	.	16cc\	.	.
!!LO:LB:g=original
=80	=80	=80	=80	=80	=80	=80	=80	=80	=80	=80	=80	=80	=80
!	!	!	!	!	!	!	!	!	!	!	!	!	!LO:DY:a:rj
4En\	.	4d-X 4B-\	.	4g\	-cze-	.	4dd-X 4b-^\	zło-	.	.	4dd-X^<\	.	>
8E\	.	8d- 8B-\	.	8g\	-nia	.	8dd- 8b-\	-te	.	.	8dd-\	.	]
8r	.	8r	.	8r	.	.	8r	.	.	.	8r	.	.
4r	.	4r	.	4r	.	.	4r	.	.	.	8.r	.	.
!	!	!	!	!	!	!	!	!	!	!	!	!	!LO:DY:a:rj
.	.	.	.	.	.	.	.	.	.	.	16dd-\	Niech	p
=81	=81	=81	=81	=81	=81	=81	=81	=81	=81	=81	=81	=81	=81
2.r	.	2.r	.	2.r	.	.	2.r	.	.	.	(4.ddn\	ze-	.
.	.	.	.	.	.	.	.	.	.	.	16cc\LL	.	.
.	.	.	.	.	.	.	.	.	.	.	16dd\JJ)	.	.
!	!	!	!	!	!	!	!	!	!	!	!	!	!LO:HP:a:t=cresc
.	.	.	.	.	.	.	.	.	.	.	8.ee-\	-szle	<
.	.	.	.	.	.	.	.	.	.	.	16cc\	we-	.
=82	=82	=82	=82	=82	=82	=82	=82	=82	=82	=82	=82	=82	=82
*	*	*^	*	*	*	*	*	*	*	*	*	*	*
4r	.	4r	2ryy	.	4r	.	.	4r	.	.	.	4ff\	-se-	.
4r	.	4r	.	.	4r	.	.	4r	.	.	.	8ff\	-le	.
.	.	.	.	.	.	.	.	.	.	.	.	8r	.	.
!	!LO:DY:a:rj	!	!	!	!	!	!	!	!	!	!	!	!	!LO:HP:a
!	!LO:HP:a	!	!	!	!	!	!	!	!	!	!LO:DY:a:rj	!	!	!LO:DY:a:rj
4D\	f <	4B-/	4B-\	.	4f#X\	My	.	4ff#X 4b-\	niech	My	f	4ff#X\	niech	f <
=83	=83	=83	=83	=83	=83	=83	=83	=83	=83	=83	=83	=83	=83	=83
4E-\	.	4e-/	4B-\	.	4g\	gło-	.	4gg 4b-\	ze-	gło-	.	8.gg\L	ze-	[
.	[	.	.	.	.	.	.	.	.	.	.	16bb-\Jk	.	.
4En\	.	4d-X/	4B-\	.	4g\	-śim	.	4gg 4b-\	-szle	-sim	.	4bb-\	-szle	.
4r	.	4r	4ryy	.	4r	.	.	4r	.	.	.	8.r	.	.
!	!	!	!	!	!	!	!	!	!	!	!	!	!	!LO:DY:a:rj
.	.	.	.	.	.	.	.	.	.	.	.	16een\	we-	p
*	*	*v	*v	*	*	*	*	*	*	*	*	*	*	*
!!LO:PB:g=original
=84	=84	=84	=84	=84	=84	=84	=84	=84	=84	=84	=84	=84	=84
2.r	.	2.r	.	2.r	.	.	2.r	.	.	.	([8een\L	-se-	.
.	.	.	.	.	.	.	.	.	.	.	32ee\LL]	.	.
.	.	.	.	.	.	.	.	.	.	.	32ff\	.	.
.	.	.	.	.	.	.	.	.	.	.	32dd\	.	.
.	.	.	.	.	.	.	.	.	.	.	32b-\JJJ	.	.
!	!	!	!	!	!	!	!	!	!	!	!LO:TX:b:i:t=rallent	!	!
.	.	.	.	.	.	.	.	.	.	.	[8aa\L	.	.
.	.	.	.	.	.	.	.	.	.	.	32aa\LL]	.	.
.	.	.	.	.	.	.	.	.	.	.	32bb-\	.	.
.	.	.	.	.	.	.	.	.	.	.	32ff\	.	.
.	.	.	.	.	.	.	.	.	.	.	32dd\JJJ	.	.
.	.	.	.	.	.	.	.	.	.	.	[8cc#X\L	.	.
.	.	.	.	.	.	.	.	.	.	.	32cc#\LL]	.	.
.	.	.	.	.	.	.	.	.	.	.	32dd\	.	.
.	.	.	.	.	.	.	.	.	.	.	32b-\	.	.
.	.	.	.	.	.	.	.	.	.	.	32g\JJJ)	.	.
=85	=85	=85	=85	=85	=85	=85	=85	=85	=85	=85	=85	=85	=85
!	!	!	!	!	!	!	!	!	!	!	!LO:TX:a:i:t=rallentisſimo	!	!
2.r	.	2.r	.	2.r	.	.	2.r	.	.	.	4.f/	-le	.
.	.	.	.	.	.	.	.	.	.	.	16r	.	.
.	.	.	.	.	.	.	.	.	.	.	16f/	we-	.
.	.	.	.	.	.	.	.	.	.	.	8.gg\	-se-	.
.	.	.	.	.	.	.	.	.	.	.	16ff\	-le	.
=86	=86	=86	=86	=86	=86	=86	=86	=86	=86	=86	=86	=86	=86
2.r	.	2.r	.	2.r	.	.	2.r	.	.	.	4b-\	zło-	.
.	.	.	.	.	.	.	.	.	.	.	8b-\	-te	.
.	.	.	.	.	.	.	.	.	.	.	8r	.	.
.	.	.	.	.	.	.	.	.	.	.	8.r	.	.
!	!	!	!	!	!	!	!	!	!	!	!	!	!LO:DY:a:rj
.	.	.	.	.	.	.	.	.	.	.	16ff 16dd\	niech	f
!!LO:LB:g=original
=87||	=87||	=87||	=87||	=87||	=87||	=87||	=87||	=87||	=87||	=87||	=87||	=87||	=87||
!!!OMD: All.°. vivace.
8.r	.	8.r	.	8.r	.	.	8.r	.	.	.	[2.ff [>2.dd\	ze-	.
16BB-/	.	16B- 16F/	.	16d\	My	.	16f/	Juz	My	.	.	.	.
8BB-/	.	8B- 8F/	.	8d\	gło-	.	8b- 8f/	ze-	.	.	.	.	.
8BB-/	.	8B- 8F/	.	8d\	-śim	.	8f/	-słał	.	.	.	.	.
8BB-/	.	8B- 8F/	.	8d\	gło-	.	8b- 8f/	srebr-	.	.	.	.	.
!	!	!	!	!	!	!	!	!	!	!LO:HP:a:t=cresc	!	!	!
8BB-/	.	8B- 8F/	.	16d\	-śim	.	16f/	-ne	.	<	.	.	.
.	.	.	.	16d\	ser-	.	16f/	.	.	.	.	.	.
=88	=88	=88	=88	=88	=88	=88	=88	=88	=88	=88	=88	=88	=88
8BB-/	.	8B- 8F/	.	8d\	-decz-	.	8b- 8f/	srebr-	.	.	4ff] 4dd\]	.	.
16BB-/	.	16B- 16F/	.	16d\	-ne	.	16f/	-ne	.	.	.	.	.
16BB-/	.	16B- 16F/	.	16d\	ży-	.	16b- 16f/	we-	.	.	.	.	.
2BB-/	.	2B- 2F/	.	2f\	-cze-	.	2dd 2b-/	-se-	.	.	8dd 8b-\	-szle	.
.	.	.	.	.	.	.	.	.	.	.	8r	.	.
.	.	.	.	.	.	.	.	.	.	.	8.r	.	.
.	.	.	.	.	.	.	.	.	.	.	16ff\	niech	.
=89	=89	=89	=89	=89	=89	=89	=89	=89	=89	=89	=89	=89	=89
!LO:N:vis=4	!	!LO:N:vis=4	!	!	!	!	!	!	!	!	!	!	!
8BB-/	.	8B- 8F/	.	8d\	-nia	.	8b- 8f/	-le	.	.	[2.bb- [>2.dd\	ze-	.
16r	.	16r	.	16r	.	.	16r	.	.	.	.	.	.
16BB-/	.	16B- 16F/	.	16d\	My	.	16b- 16f/	I	.	.	.	.	.
8BB-/	.	8d 8B-\	.	8f\	gło-	.	8dd 8b-/	ze-	.	.	.	.	.
16BB-/	.	16B- 16F/	.	16d\	-śim	.	16b- 16f/	-szle	.	.	.	.	.
16B- 16BB-\	.	16B- 16F/	.	16d\	ser-	.	16b- 16f/	we-	.	.	.	.	.
8B- 8BB-\	.	8d 8B-\	.	8f\	-decz-	.	8dd 8b-\	-se-	.	.	.	.	.
8B- 8BB-\	.	8f 8d\	.	16b-\	-ne	.	16ff 16dd\	-le	.	.	.	.	.
.	.	.	.	16b-\	ży-	.	16ff 16dd\	.	.	.	.	.	.
=90	=90	=90	=90	=90	=90	=90	=90	=90	=90	=90	=90	=90	=90
4B- 4BB-\	.	4f 4d\	.	4b-\	-cze-	.	4bb- 4dd\	zło-	.	.	(4bb-] 4dd\]	.	.
8B- 8BB-\	.	8f 8d\	.	8b-\	-nia	.	8ff 8dd\	-te	.	.	8ff 8dd\)	-szle	.
8r	.	8r	.	8r	.	.	8r	.	.	.	8r	.	.
!	!	!	!	!	!	!	!	!	!	!LO:DY:a:rj	!	!	!
4E-\	.	4g 4B-\	.	4b-\	Ser-	.	4gg 4ee-\	We-	.	ff	4gg 4b-\	We	.
!!LO:PB:g=original
=91	=91	=91	=91	=91	=91	=91	=91	=91	=91	=91	=91	=91	=91
*	*	*^	*	*^	*	*	*^	*	*	*	*	*	*
*	*	*	*	*	*	*	*	*	*	*^	*	*	*	*	*	*
*	*	*	*	*	*	*	*	*	*	*	*^	*	*	*	*	*	*
*	*	*	*	*	*	*cue	*	*	*	*	*cue	*cue	*	*	*	*	*	*
2F\	.	2f/	2d\	.	2b-\	4b-/	-decz-	.	2ff/	2dd\	4ff/	4dd\	-se-	.	.	8ff\L|	.	.
.	.	.	.	.	.	.	.	.	.	.	.	.	.	.	.	(16ddd\L	.	.
.	.	.	.	.	.	.	.	.	.	.	.	.	.	.	.	16ccc\JJ	.	.
.	.	.	.	.	.	4b-/	-ne	.	.	.	4ff/	4dd\	.	.	.	16bb-\LL	.	.
.	.	.	.	.	.	.	.	.	.	.	.	.	.	.	.	16aa\	.	.
.	.	.	.	.	.	.	.	.	.	.	.	.	.	.	.	16gg\	.	.
.	.	.	.	.	.	.	.	.	.	.	.	.	.	.	.	16ff\JJ	.	.
*	*	*	*	*	*	*Xcue	*	*	*	*	*Xcue	*Xcue	*	*	*	*	*	*
4F 4FF/	.	4e-/	4c\	.	4f\	4ryy	ży-	.	4a/	4a\	4ryy	4ryy	-le	.	.	16een\LL	.	.
.	.	.	.	.	.	.	.	.	.	.	.	.	.	.	.	16ff\	.	.
.	.	.	.	.	.	.	.	.	.	.	.	.	.	.	.	16gg\	.	.
.	.	.	.	.	.	.	.	.	.	.	.	.	.	.	.	16aa\JJ)	.	.
*	*	*v	*v	*	*	*	*	*	*v	*v	*v	*v	*	*	*	*	*	*
*	*	*	*	*v	*v	*	*	*	*	*	*	*	*	*
=92	=92	=92	=92	=92	=92	=92	=92	=92	=92	=92	=92	=92	=92
4BB-/	.	4d 4B-\	.	4f\	-cze-	.	4b-\	zło-	.	.	8bb-\L	.	.
.	.	.	.	.	.	.	.	.	.	.	(16ddd\L	.	.
.	.	.	.	.	.	.	.	.	.	.	16ccc\JJ	.	.
8BB-/	.	8d 8B-\	.	8f\	-nia	.	8b-\	-te	.	.	16bb-\LL	.	.
.	.	.	.	.	.	.	.	.	.	.	16aa\	.	.
8r	.	8r	.	8r	.	.	8r	.	.	.	16gg\	.	.
.	.	.	.	.	.	.	.	.	.	.	16ff\JJ	.	.
8.F\	.	8.e- 8.c\	.	8.f\	głoś-	.	8.cc 8.a\	ze-	.	.	16een\LL	.	.
.	.	.	.	.	.	.	.	.	.	.	16ff\	.	.
.	.	.	.	.	.	.	.	.	.	.	16gg\	.	.
16F\	.	16e- 16c\	.	16f\	-my	.	16cc 16a\	-szle	.	.	16aa\JJ)	.	.
=93	=93	=93	=93	=93	=93	=93	=93	=93	=93	=93	=93	=93	=93
*	*	*	*	*	*	*	*	*	*	*	*rep	*	*
4B- 4BB-\	.	4d 4B-\	.	4f\	więc	.	4dd 4b-\	nam	.	.	8bb-\L	.	.
.	.	.	.	.	.	.	.	.	.	.	(16ddd\L	.	.
.	.	.	.	.	.	.	.	.	.	.	16ccc\JJ	.	.
4r	.	4r	.	4r	.	.	4r	.	.	.	16bb-\LL	.	.
.	.	.	.	.	.	.	.	.	.	.	16aa\	.	.
.	.	.	.	.	.	.	.	.	.	.	16gg\	.	.
.	.	.	.	.	.	.	.	.	.	.	16ff\JJ	.	.
8.F\	.	8.e- 8.c\	.	8.f\	głoś-	.	8.cc 8.a\	ze-	.	.	16een\LL	.	.
.	.	.	.	.	.	.	.	.	.	.	16ff\	.	.
.	.	.	.	.	.	.	.	.	.	.	16gg\	.	.
16F\	.	16e- 16c\	.	16f\	-my	.	16cc 16a\	-szle	.	.	16aa\JJ)	.	.
*	*	*	*	*	*	*	*	*	*	*	*Xrep	*	*
!!LO:LB:g=original
=94	=94	=94	=94	=94	=94	=94	=94	=94	=94	=94	=94	=94	=94
*	*	*^	*	*	*	*	*^	*	*	*	*	*	*
4B- 4BB-\	.	4d/	4B-\	.	4f\	więc	.	4dd/	4b-\	nam	.	.	8bb-\L|	.	.
.	.	.	.	.	.	.	.	.	.	.	.	.	(16ddd\L	.	.
.	.	.	.	.	.	.	.	.	.	.	.	.	16ccc\JJ)	.	.
4r	.	4r	4ryy	.	4r	.	.	4r	4ryy	.	.	.	(16bb-\LL	.	.
.	.	.	.	.	.	.	.	.	.	.	.	.	16aa\	.	.
.	.	.	.	.	.	.	.	.	.	.	.	.	16gg\	.	.
.	.	.	.	.	.	.	.	.	.	.	.	.	16ff\JJ	.	.
4r	.	4r	4ryy	.	4r	.	.	4r	4ryy	.	.	.	16ee-X\LL	.	.
.	.	.	.	.	.	.	.	.	.	.	.	.	16dd\	.	.
.	.	.	.	.	.	.	.	.	.	.	.	.	16cc\	.	.
.	.	.	.	.	.	.	.	.	.	.	.	.	16b-\JJ)	.	.
*	*	*v	*v	*	*	*	*	*	*	*	*	*	*	*	*
=95	=95	=95	=95	=95	=95	=95	=95	=95	=95	=95	=95	=95	=95	=95
8E-\	.	8g 8B-\	.	8b-\	Głoś-	.	8gg 8ee-\	2ryy	we-	.	.	8gg 8b-\	.	.
8r	.	8r	.	8r	.	.	8r	.	.	.	.	8r	.	.
8F\	.	8f 8d\	.	8b-\	-my	.	8ff 8dd\	.	-se-	.	.	8ff 8b-\	.	.
8r	.	8r	.	8r	.	.	8r	.	.	.	.	8r	.	.
8F 8FF\	.	8e- 8c\	.	8f\	ży-	.	8a/	8a\	-le	.	.	8aa 8cc\	.	.
8r	.	8r	.	8r	.	.	8r	8ryy	.	.	.	8r	.	.
*	*	*	*	*	*	*	*v	*v	*	*	*	*	*	*
=96	=96	=96	=96	=96	=96	=96	=96	=96	=96	=96	=96	=96	=96
*^	*	*^	*	*	*	*	*	*	*	*	*	*	*
[2.D/	[2.BB-\	.	[2.d [2.B-/	[2.F\	.	[2.f\	-cze-	.	[>2.b-/	zło-	.	.	8.bb-\L	.	.
.	.	.	.	.	.	.	.	.	.	.	.	.	(32ddd\LL	.	.
.	.	.	.	.	.	.	.	.	.	.	.	.	32bb-\JJJ	.	.
.	.	.	.	.	.	.	.	.	.	.	.	.	8.ff\L)	.	.
.	.	.	.	.	.	.	.	.	.	.	.	.	(32bb-\LL	.	.
.	.	.	.	.	.	.	.	.	.	.	.	.	32ff\JJJ	.	.
.	.	.	.	.	.	.	.	.	.	.	.	.	8.dd\L)	.	.
.	.	.	.	.	.	.	.	.	.	.	.	.	(32ff\LL	.	.
.	.	.	.	.	.	.	.	.	.	.	.	.	32dd\JJJ	.	.
=97	=97	=97	=97	=97	=97	=97	=97	=97	=97	=97	=97	=97	=97	=97	=97
2.D/]	2.BB-\]	.	2.d] 2.B-/]	2.F\]	.	2.f\]	.	.	2.b-/]	.	.	.	8.b-\L)	.	.
.	.	.	.	.	.	.	.	.	.	.	.	.	(32ddd\LL	.	.
.	.	.	.	.	.	.	.	.	.	.	.	.	32bb-\JJJ	.	.
.	.	.	.	.	.	.	.	.	.	.	.	.	8.ff\L)	.	.
.	.	.	.	.	.	.	.	.	.	.	.	.	(32bb-\LL	.	.
.	.	.	.	.	.	.	.	.	.	.	.	.	32ff\JJJ	.	.
.	.	.	.	.	.	.	.	.	.	.	.	.	8.dd\L)	.	.
.	.	.	.	.	.	.	.	.	.	.	.	.	(32ff\LL	.	.
.	.	.	.	.	.	.	.	.	.	.	.	.	32dd\JJJ	.	.
!!LO:PB:g=original
=98	=98	=98	=98	=98	=98	=98	=98	=98	=98	=98	=98	=98	=98	=98	=98
!	!	!	!	!	!	!	!	!	!	!	!	!	!LO:TX:t=P:problem=brak zakończenia łuku	!	!
4D/	4BB-\	.	4d 4B-/	4F\	.	4f\	-nia.	.	4b-\	-te.	.	.	8b-\)	.	.
.	.	.	.	.	.	.	.	.	.	.	.	.	8r	.	.
4r	4ryy	.	4r	4ryy	.	4r	.	.	4r	.	.	.	8bb- 8b- 8d\	.	.
.	.	.	.	.	.	.	.	.	.	.	.	.	16r	.	.
.	.	.	.	.	.	.	.	.	.	.	.	.	16a-X/	.	.
4r	4ryy	.	4r	4ryy	.	4r	.	.	4r	.	.	.	4a-^T/	.	.
*v	*v	*	*	*	*	*	*	*	*	*	*	*	*	*	*
*	*	*v	*v	*	*	*	*	*	*	*	*	*	*	*
=99	=99	=99	=99	=99	=99	=99	=99	=99	=99	=99	=99	=99	=99
!	!	!	!	!	!	!	!LO:TX:b:t=Tu następuie Deklamacya, po niey da Capo Chór od znaku [segno] \ndo fine	!	!	!	!	!	!
2.ryy	.	2.ryy	.	2.ryy	.	.	2.ryy	.	.	.	2g/	.	.
!	!	!	!	!	!	!	!	!	!	!	!LO:TX:t=P:problem=tryl bez akcydencji	!	!
.	.	.	.	.	.	.	.	.	.	.	4g-X^T/	.	.
=100	=100	=100	=100	=100	=100	=100	=100	=100	=100	=100	=100	=100	=100
2.ryy	.	2.ryy	.	2.ryy	.	.	2.ryy	.	.	.	2f/	.	.
.	.	.	.	.	.	.	.	.	.	.	4e-X^T/	.	.
*	*	*	*	*	*	*	*	*	*	*	*kcancel	*	*
=101||	=101||	=101||	=101||	=101||	=101||	=101||	=101||	=101||	=101||	=101||	=101||	=101||	=101||
*	*	*	*	*	*	*	*	*	*	*	*k[f#]	*	*
*	*	*	*	*	*	*	*	*	*	*	*M6/4	*	*
1.ryy	.	1.ryy	.	1.ryy	.	.	1.ryy	.	.	.	(2d/	.	.
.	.	.	.	.	.	.	.	.	.	.	4f#/)	.	.
.	.	.	.	.	.	.	.	.	.	.	(2g/	.	.
!	!	!	!	!	!	!	!	!	!	!	!LO:TX:a:t=ect.	!	!
.	.	.	.	.	.	.	.	.	.	.	4b/)	.	.
=||	=||	=||	=||	=||	=||	=||	=||	=||	=||	=||	=||	=||	=||
*-	*-	*-	*-	*-	*-	*-	*-	*-	*-	*-	*-	*-	*-
!!!system-decoration: s1[(s2,s3,s4,s5)]
!!!RDF**kern: > = above
!!!RDF**kern: < = below
!!!RDF**kern: | = vertical stroke
!!!ENC: Andrzej Kubiczek
!!!END: 2021-08-12
!!!ENC: Katarzyna Serwa
!!!END: 2021-08-01
!!!YEC: Copyright 2022 Narodowy Instytut Fryderyka Chopina (https://polishscores.org)
!!!YEM: Licence CC BY 4.0 (https://creativecommons.org/licenses/by/4.0)
